; HEADER_BLOCK_START
; generated by OrcaSlicer 1.9.0 on 2024-01-27 at 19:55:26
; total layer number: 126
; filament_density: 1.27
; filament_diameter: 1.75
; max_z_height: 25.20
; HEADER_BLOCK_END

; THUMBNAIL_BLOCK_START

;
; THUMBNAIL_BLOCK_END

; THUMBNAIL_BLOCK_START

;
; THUMBNAIL_BLOCK_END

; external perimeters extrusion width = 0.42mm
; perimeters extrusion width = 0.45mm
; infill extrusion width = 0.45mm
; solid infill extrusion width = 0.46mm
; top infill extrusion width = 0.42mm
; first layer extrusion width = 0.46mm

; EXECUTABLE_BLOCK_START
M73 P0 R28
;TYPE:Custom
START_PRINT EXTRUDER_TEMP=232 BED_TEMP=80
G90
G21
M83 ; use relative distances for extrusion
; filament start gcode
M106 S0
;LAYER_CHANGE
;Z:0.2
;HEIGHT:0.2
;BEFORE_LAYER_CHANGE
;0.2
G92 E0

G1 E-1.5 F1500
;_SET_FAN_SPEED_CHANGING_LAYER
SET_VELOCITY_LIMIT ACCEL=500 ACCEL_TO_DECEL=250
SET_VELOCITY_LIMIT SQUARE_CORNER_VELOCITY=8
; printing object Case.stl id:0 copy 0
G1 Z.4 F9000
G1 X110.024 Y98.109
G1 Z.4
G1 Z.2
G1 E1.5 F1500
;TYPE:Inner wall
;WIDTH:0.374784
G1 F1800
G1 X110.223 Y98.105 E.00514
;WIDTH:0.392151
G1 X110.423 Y98.131 E.00551
;WIDTH:0.426075
G1 X110.623 Y98.156 E.00605
;WIDTH:0.459999
G1 X111.366 Y98.226 E.02432
G1 X112.147 Y98.344 E.02576
G1 X112.907 Y98.509 E.02534
G1 X113.66 Y98.727 E.02555
G1 X114.403 Y98.996 E.02576
G1 X115.114 Y99.308 E.02534
G1 X115.81 Y99.669 E.02555
G1 X116.485 Y100.079 E.02576
G1 X117.127 Y100.53 E.02555
G1 X117.732 Y101.017 E.02534
G1 X118.314 Y101.552 E.02576
G1 X118.85 Y102.115 E.02534
G1 X119.351 Y102.717 E.02555
G1 X119.816 Y103.357 E.02576
G1 X120.233 Y104.02 E.02555
G1 X120.603 Y104.704 E.02534
G1 X120.933 Y105.422 E.02576
G1 X121.209 Y106.148 E.02534
G1 X121.439 Y106.898 E.02555
G1 X121.586 Y107.519 E.0208
G1 X121.694 Y108.104 E.01941
G1 X121.825 Y109.164 E.03482
;WIDTH:0.433216
G1 X121.863 Y109.5 E.01031
;WIDTH:0.406433
G1 X121.884 Y109.754 E.00724
;WIDTH:0.380255
G1 X121.905 Y110.008 E.00672
;WIDTH:0.369345
G1 X121.885 Y110.394 E.00985
;WIDTH:0.414672
G1 X121.848 Y110.665 E.00794
;WIDTH:0.459999
G1 X121.749 Y111.56 E.02936
G1 X121.619 Y112.339 E.02576
G1 X121.439 Y113.102 E.02555
G1 X121.211 Y113.845 E.02534
G1 X120.93 Y114.584 E.02576
G1 X120.603 Y115.296 E.02555
G1 X120.233 Y115.98 E.02534
G1 X119.812 Y116.649 E.02576
G1 X119.351 Y117.283 E.02555
G1 X118.854 Y117.88 E.02534
G1 X118.309 Y118.452 E.02576
G1 X117.732 Y118.983 E.02555
G1 X117.127 Y119.47 E.02534
G1 X116.48 Y119.924 E.02576
G1 X115.816 Y120.328 E.02534
G1 X115.12 Y120.689 E.02555
G1 X114.397 Y121.007 E.02576
G1 X113.666 Y121.271 E.02534
G1 X112.913 Y121.489 E.02555
G1 X112.141 Y121.658 E.02576
G1 X111.366 Y121.774 E.02555
G1 X110.623 Y121.844 E.02431
;WIDTH:0.426056
G1 X110.423 Y121.869 E.00605
;WIDTH:0.392113
G1 X110.223 Y121.895 E.00551
;WIDTH:0.374752
G1 X109.569 Y121.882 E.01696
;WIDTH:0.417376
G1 X109.293 Y121.847 E.00812
;WIDTH:0.459999
G1 X108.246 Y121.722 E.03439
G1 X107.469 Y121.579 E.02576
G1 X106.715 Y121.388 E.02534
G1 X105.97 Y121.146 E.02555
G1 X105.236 Y120.853 E.02576
G1 X104.529 Y120.514 E.02555
G1 X103.846 Y120.13 E.02555
G1 X103.195 Y119.705 E.02534
G1 X102.564 Y119.23 E.02576
G1 X101.97 Y118.718 E.02555
G1 X101.416 Y118.173 E.02534
G1 X100.89 Y117.583 E.02576
G1 X100.409 Y116.964 E.02555
G1 X99.973 Y116.321 E.02534
G1 X99.575 Y115.638 E.02576
G1 X99.225 Y114.937 E.02555
G1 X98.924 Y114.22 E.02534
G1 X98.668 Y113.473 E.02576
G1 X98.463 Y112.716 E.02555
G1 X98.31 Y111.954 E.02534
G1 X98.155 Y110.715 E.04072
;WIDTH:0.419629
G1 X98.128 Y110.417 E.00881
;WIDTH:0.387001
G1 X98.101 Y110.119 E.00805
;WIDTH:0.387323
G1 X98.127 Y109.464 E.01765
;WIDTH:0.423661
G1 X98.167 Y109.143 E.00961
;WIDTH:0.459999
G1 X98.31 Y108.046 E.03607
G1 X98.463 Y107.284 E.02534
G1 X98.67 Y106.521 E.02576
G1 X98.924 Y105.78 E.02555
G1 X99.225 Y105.063 E.02534
G1 X99.578 Y104.356 E.02576
G1 X99.97 Y103.685 E.02534
G1 X100.409 Y103.036 E.02555
G1 X100.895 Y102.412 E.02576
G1 X101.416 Y101.827 E.02555
G1 X101.97 Y101.282 E.02534
G1 X102.569 Y100.766 E.02576
G1 X103.195 Y100.295 E.02555
G1 X103.846 Y99.87 E.02534
G1 X104.535 Y99.483 E.02576
G1 X105.236 Y99.147 E.02534
G1 X105.964 Y98.856 E.02555
G1 X106.715 Y98.612 E.02576
G1 X107.449 Y98.426 E.02466
G1 X108.494 Y98.249 E.03455
G1 X109.3 Y98.153 E.02648
;WIDTH:0.417392
G1 X109.569 Y98.118 E.00793
;WIDTH:0.374784
G1 X109.984 Y98.11 E.01078
G1 E-1.05 F1500
;WIPE_START
G1 F1800
G1 X110.223 Y98.105 E-.10719
G1 X110.423 Y98.131 E-.09084
G1 X110.623 Y98.156 E-.09084
G1 X110.98 Y98.19 E-.16113
;WIPE_END
G1 Z.6 F9000
G1 X120.441 Y108.424 Z.6
G1 Z.2
G1 E1.5 F1500
;WIDTH:0.459999
G1 F1800
G1 X120.717 Y108.52 E.00954
G1 X121.088 Y108.772 E.01461
G1 X121.305 Y109 E.01025
G1 X121.501 Y109.328 E.01245
G1 X121.531 Y109.529 E.00666
;WIDTH:0.425028
G1 X121.561 Y109.731 E.0061
;WIDTH:0.390056
G1 X121.591 Y109.933 E.00554
;WIDTH:0.393663
G1 X121.551 Y110.438 E.01388
;WIDTH:0.426831
G1 X121.493 Y110.62 E.00573
;WIDTH:0.459999
G1 X121.436 Y110.802 E.00622
G1 X121.212 Y111.112 E.01245
G1 X120.923 Y111.361 E.01245
G1 X120.584 Y111.537 E.01245
G1 X120.214 Y111.631 E.01245
G1 X119.832 Y111.636 E.01245
G1 X119.459 Y111.553 E.01245
G1 X119.116 Y111.387 E.01245
G1 X118.82 Y111.145 E.01245
G1 X118.587 Y110.842 E.01245
;WIDTH:0.507243
G1 X118.354 Y110.268 E.02249
;WIDTH:0.519809
G1 X118.347 Y109.73 E.02006
G1 X118.467 Y109.444 E.01157
;WIDTH:0.489904
G1 X118.587 Y109.158 E.01084
;WIDTH:0.459999
G1 X118.925 Y108.755 E.01714
G1 X119.241 Y108.541 E.01245
G1 X119.598 Y108.405 E.01245
G1 X119.977 Y108.356 E.01245
G1 X120.357 Y108.395 E.01245
G1 X120.403 Y108.411 E.0016
G1 X120.302 Y108.815 F9000
;TYPE:Outer wall
G1 F1800
G1 X120.509 Y108.881 E.00707
G1 X120.802 Y109.075 E.01146
G1 X120.957 Y109.229 E.00711
G1 X121.109 Y109.47 E.0093
G1 X121.201 Y109.74 E.0093
G1 X121.229 Y110.024 E.0093
G1 X121.19 Y110.307 E.0093
G1 X121.087 Y110.573 E.0093
G1 X120.926 Y110.808 E.0093
G1 X120.714 Y111 E.0093
G1 X120.464 Y111.138 E.0093
G1 X120.19 Y111.214 E.0093
G1 X119.904 Y111.225 E.0093
G1 X119.624 Y111.17 E.0093
G1 X119.365 Y111.052 E.0093
G1 X119.139 Y110.877 E.0093
G1 X118.96 Y110.655 E.0093
G1 X118.837 Y110.397 E.0093
G1 X118.777 Y110.119 E.0093
G1 X118.782 Y109.833 E.0093
G1 X118.854 Y109.557 E.0093
G1 X118.987 Y109.305 E.0093
G1 X119.174 Y109.09 E.0093
G1 X119.407 Y108.924 E.0093
G1 X119.671 Y108.816 E.0093
G1 X119.953 Y108.772 E.0093
G1 X120.237 Y108.794 E.0093
G1 X120.264 Y108.803 E.00093
G1 E-1.05 F1500
;WIPE_START
G1 F1800
G1 X120.509 Y108.881 E-.11556
G1 X120.802 Y109.075 E-.15817
G1 X120.957 Y109.229 E-.09809
G1 X121.049 Y109.376 E-.07817
;WIPE_END
G1 Z.6 F9000
G1 X111.595 Y120.367 Z.6
G1 Z.2
G1 E1.5 F1500
;TYPE:Inner wall
G1 F1800
G1 X111.582 Y120.45 E.00273
G1 X111.436 Y120.802 E.01245
G1 X111.212 Y121.112 E.01245
G1 X110.923 Y121.361 E.01245
G1 X110.581 Y121.527 E.01239
;WIDTH:0.439325
G1 X110.277 Y121.559 E.00946
;WIDTH:0.396278
G1 X109.974 Y121.591 E.00843
;WIDTH:0.38292
G1 X109.721 Y121.561 E.00676
;WIDTH:0.412609
G1 X109.469 Y121.531 E.00735
;WIDTH:0.459999
G1 X109.116 Y121.387 E.01244
G1 X108.82 Y121.145 E.01245
G1 X108.587 Y120.842 E.01245
G1 X108.431 Y120.494 E.01245
G1 X108.36 Y120.119 E.01245
G1 X108.377 Y119.737 E.01245
G1 X108.481 Y119.37 E.01245
G1 X108.667 Y119.036 E.01245
G1 X108.925 Y118.755 E.01245
G1 X109.241 Y118.541 E.01245
;WIDTH:0.485951
G1 X109.534 Y118.44 E.01073
;WIDTH:0.511902
G1 X109.827 Y118.338 E.01136
G1 X109.978 Y118.333 E.00553
;WIDTH:0.505915
G1 X110.36 Y118.382 E.01395
;WIDTH:0.485239
G1 X110.717 Y118.52 E.01323
;WIDTH:0.459999
G1 X111.039 Y118.725 E.01245
G1 X111.305 Y119 E.01245
G1 X111.501 Y119.328 E.01245
G1 X111.624 Y119.765 E.01481
G1 X111.643 Y120.073 E.01005
G1 X111.602 Y120.327 E.00841
G1 X111.185 Y120.321 F9000
;TYPE:Outer wall
G1 F1800
G1 X111.087 Y120.573 E.00881
G1 X110.818 Y120.91 E.01404
G1 X110.464 Y121.138 E.01373
G1 X110.19 Y121.214 E.0093
G1 X109.894 Y121.223 E.00964
G1 X109.624 Y121.17 E.00896
G1 X109.365 Y121.052 E.0093
G1 X109.139 Y120.877 E.0093
G1 X108.96 Y120.655 E.0093
G1 X108.837 Y120.397 E.0093
G1 X108.777 Y120.119 E.0093
G1 X108.782 Y119.833 E.0093
G1 X108.854 Y119.557 E.0093
G1 X108.987 Y119.305 E.0093
G1 X109.174 Y119.09 E.0093
G1 X109.407 Y118.924 E.0093
G1 X109.671 Y118.816 E.0093
G1 X109.953 Y118.772 E.0093
G1 X110.237 Y118.794 E.0093
G1 X110.509 Y118.881 E.0093
G1 X110.753 Y119.029 E.0093
G1 X110.957 Y119.229 E.0093
G1 X111.109 Y119.47 E.0093
G1 X111.21 Y119.813 E.01166
G1 X111.229 Y120.024 E.00691
G1 X111.193 Y120.282 E.00849
G1 E-1.05 F1500
;WIPE_START
G1 F1800
G1 X111.087 Y120.573 E-.13935
G1 X110.818 Y120.91 E-.19384
G1 X110.6 Y121.05 E-.11681
;WIPE_END
G1 Z.6 F9000
G1 X102.153 Y111.1 Z.6
G1 Z.2
G1 E1.5 F1500
;TYPE:Inner wall
G1 F1800
G1 X102.153 Y110.787 E.0102
;WIDTH:0.507287
G1 X102.129 Y110.102 E.02488
G1 X102.139 Y109.45 E.02369
;WIDTH:0.488693
G1 X102.153 Y108.746 E.02453
;WIDTH:0.459999
G1 X102.153 Y102.779 E.19453
G1 X102.269 Y102.415 E.01244
G1 X102.547 Y102.198 E.01149
G1 X103.058 Y102.153 E.01673
G1 X109.335 Y102.153 E.20464
;WIDTH:0.505173
G1 X109.941 Y102.13 E.02188
G1 X110.674 Y102.149 E.02651
;WIDTH:0.467967
G1 X111.388 Y102.153 E.02373
;WIDTH:0.459999
G1 X117.221 Y102.153 E.19016
G1 X117.627 Y102.302 E.01409
G1 X117.742 Y102.432 E.00566
G1 X117.832 Y102.64 E.00737
G1 X117.847 Y103.234 E.01938
G1 X117.847 Y109.22 E.19512
;WIDTH:0.507761
G1 X117.871 Y109.881 E.02406
G1 X117.854 Y110.562 E.02473
;WIDTH:0.474738
G1 X117.847 Y111.262 E.02363
;WIDTH:0.459999
G1 X117.847 Y117.221 E.19427
G1 X117.832 Y117.357 E.00444
G1 X117.624 Y117.7 E.01308
G1 X117.265 Y117.846 E.01265
G1 X110.674 Y117.847 E.21485
;WIDTH:0.505915
G1 X109.992 Y117.87 E.02471
G1 X109.335 Y117.847 E.02377
;WIDTH:0.459999
G1 X102.779 Y117.847 E.21375
G1 X102.547 Y117.803 E.0077
G1 X102.34 Y117.667 E.00805
G1 X102.242 Y117.544 E.00514
G1 X102.153 Y117.126 E.01393
G1 X102.153 Y112.309 E.15704
G1 X102.153 Y111.14 E.03809
G1 E-1.05 F1500
;WIPE_START
G1 F1800
G1 X102.153 Y110.787 E-.15874
G1 X102.131 Y110.141 E-.29126
;WIPE_END
G1 Z.6 F9000
G1 X102.57 Y117.221 Z.6
G1 Z.2
G1 E1.5 F1500
;TYPE:Outer wall
G1 F1800
G1 X102.57 Y112.309 E.16016
G1 X102.57 Y102.779 E.31068
G1 X102.632 Y102.63 E.00526
G1 X102.779 Y102.57 E.00515
G1 X117.221 Y102.57 E.47083
G1 X117.395 Y102.663 E.00642
G1 X117.43 Y102.779 E.00393
G1 X117.43 Y117.221 E.47083
G1 X117.356 Y117.381 E.00574
G1 X117.221 Y117.43 E.00466
G1 X102.779 Y117.43 E.47083
G1 X102.632 Y117.37 E.00515
G1 X102.585 Y117.258 E.00395
G1 E-1.05 F1500
;WIPE_START
G1 F1800
G1 X102.582 Y116.258 E-.45
;WIPE_END
G1 Z.6 F9000
G1 X99.714 Y111.61 Z.6
G1 Z.2
G1 E1.5 F1500
;TYPE:Inner wall
G1 F1800
G1 X99.459 Y111.553 E.0085
G1 X99.116 Y111.387 E.01245
G1 X98.82 Y111.145 E.01245
G1 X98.587 Y110.842 E.01245
G1 X98.499 Y110.621 E.00776
;WIDTH:0.419629
G1 X98.456 Y110.37 E.00751
;WIDTH:0.387001
G1 X98.412 Y110.119 E.00686
;WIDTH:0.375497
G1 X98.44 Y109.654 E.0121
;WIDTH:0.417748
G1 X98.514 Y109.406 E.00758
;WIDTH:0.459999
G1 X98.587 Y109.158 E.00844
G1 X98.925 Y108.755 E.01714
G1 X99.241 Y108.541 E.01245
G1 X99.598 Y108.405 E.01245
G1 X99.977 Y108.356 E.01245
G1 X100.357 Y108.395 E.01245
G1 X100.717 Y108.52 E.01245
G1 X101.039 Y108.725 E.01245
G1 X101.305 Y109 E.01245
G1 X101.501 Y109.328 E.01245
;WIDTH:0.490551
G1 X101.573 Y109.508 E.0068
;WIDTH:0.521103
G1 X101.646 Y109.688 E.00726
G1 X101.666 Y110.075 E.01449
;WIDTH:0.507287
G1 X101.6 Y110.456 E.01403
;WIDTH:0.498788
G1 X101.305 Y111 E.02206
;WIDTH:0.459999
G1 X100.923 Y111.361 E.01714
G1 X100.584 Y111.537 E.01245
G1 X100.214 Y111.631 E.01245
G1 X99.832 Y111.636 E.01245
G1 X99.753 Y111.618 E.00265
G1 X99.806 Y111.206 F9000
;TYPE:Outer wall
G1 F1800
G1 X99.624 Y111.17 E.00604
G1 X99.365 Y111.052 E.0093
G1 X99.139 Y110.877 E.0093
G1 X98.96 Y110.655 E.0093
G1 X98.854 Y110.443 E.00773
G1 X98.777 Y110.119 E.01087
G1 X98.804 Y109.74 E.01236
G1 X98.96 Y109.345 E.01385
G1 X99.174 Y109.09 E.01087
G1 X99.407 Y108.924 E.0093
G1 X99.671 Y108.816 E.0093
G1 X99.953 Y108.772 E.0093
G1 X100.237 Y108.794 E.0093
G1 X100.509 Y108.881 E.0093
G1 X100.753 Y109.029 E.0093
G1 X100.957 Y109.229 E.0093
G1 X101.109 Y109.47 E.0093
G1 X101.201 Y109.74 E.0093
G1 X101.229 Y110.024 E.0093
G1 X101.19 Y110.307 E.0093
G1 X101.087 Y110.573 E.0093
G1 X100.926 Y110.808 E.0093
G1 X100.714 Y111 E.0093
G1 X100.464 Y111.138 E.0093
G1 X100.19 Y111.214 E.0093
G1 X99.904 Y111.225 E.0093
G1 X99.845 Y111.214 E.00196
G1 E-1.05 F1500
;WIPE_START
G1 F1800
G1 X99.624 Y111.17 E-.10134
G1 X99.365 Y111.052 E-.12841
G1 X99.139 Y110.877 E-.1284
G1 X99.011 Y110.718 E-.09184
;WIPE_END
G1 Z.6 F9000
G1 X108.393 Y99.667 Z.6
G1 Z.2
G1 E1.5 F1500
;TYPE:Inner wall
G1 F1800
G1 X108.442 Y99.468 E.00667
G1 X108.667 Y99.036 E.01588
G1 X108.925 Y98.755 E.01245
G1 X109.242 Y98.543 E.01244
;WIDTH:0.456307
G1 X109.536 Y98.479 E.00972
;WIDTH:0.408454
G1 X109.83 Y98.415 E.0086
;WIDTH:0.371884
G1 X110.344 Y98.437 E.01323
;WIDTH:0.415942
G1 X110.531 Y98.478 E.00558
;WIDTH:0.459999
G1 X110.717 Y98.52 E.00623
G1 X111.105 Y98.787 E.01533
G1 X111.305 Y99 E.00953
G1 X111.501 Y99.328 E.01245
G1 X111.615 Y99.692 E.01245
G1 X111.643 Y100.073 E.01245
G1 X111.582 Y100.45 E.01245
G1 X111.436 Y100.802 E.01245
G1 X111.212 Y101.112 E.01245
G1 X110.923 Y101.361 E.01245
;WIDTH:0.503197
G1 X110.363 Y101.626 E.02228
;WIDTH:0.505173
G1 X109.941 Y101.668 E.01534
G1 X109.597 Y101.605 E.01264
;WIDTH:0.481006
G1 X109.116 Y101.387 E.01809
;WIDTH:0.459999
G1 X108.82 Y101.145 E.01245
G1 X108.587 Y100.842 E.01245
G1 X108.431 Y100.494 E.01245
G1 X108.36 Y100.119 E.01245
G1 X108.377 Y99.737 E.01245
G1 X108.384 Y99.706 E.00104
G1 X108.799 Y99.765 F9000
;TYPE:Outer wall
G1 F1800
G1 X108.841 Y99.59 E.00589
G1 X108.987 Y99.305 E.01045
G1 X109.174 Y99.09 E.0093
G1 X109.407 Y98.924 E.0093
G1 X109.671 Y98.816 E.0093
G1 X109.953 Y98.772 E.0093
G1 X110.237 Y98.794 E.0093
G1 X110.509 Y98.881 E.0093
G1 X110.818 Y99.09 E.01217
G1 X111.087 Y99.427 E.01404
G1 X111.201 Y99.74 E.01087
G1 X111.229 Y100.024 E.0093
G1 X111.19 Y100.307 E.0093
G1 X111.087 Y100.573 E.0093
G1 X110.926 Y100.808 E.0093
G1 X110.714 Y101 E.0093
G1 X110.464 Y101.138 E.0093
G1 X110.19 Y101.214 E.0093
G1 X109.904 Y101.225 E.0093
G1 X109.624 Y101.17 E.0093
G1 X109.365 Y101.052 E.0093
G1 X109.139 Y100.877 E.0093
G1 X108.96 Y100.655 E.0093
G1 X108.837 Y100.398 E.0093
G1 X108.777 Y100.119 E.0093
G1 X108.782 Y99.833 E.0093
G1 X108.789 Y99.804 E.00097
G1 E-1.05 F1500
;WIPE_START
G1 F1800
G1 X108.841 Y99.59 E-.09928
G1 X108.987 Y99.305 E-.14422
G1 X109.174 Y99.09 E-.1284
G1 X109.316 Y98.989 E-.0781
;WIPE_END
G1 Z.6 F9000
G1 X110.016 Y97.736 Z.6
G1 Z.2
G1 E1.5 F1500
G1 F1800
G1 X110.605 Y97.745 E.01921
G1 X111.414 Y97.812 E.02645
G1 X112.223 Y97.933 E.02666
G1 X113.009 Y98.105 E.02624
G1 X113.788 Y98.33 E.02645
G1 X114.558 Y98.608 E.02666
G1 X115.295 Y98.931 E.02624
G1 X116.015 Y99.305 E.02645
G1 X116.714 Y99.73 E.02666
G1 X117.378 Y100.196 E.02645
G1 X118.005 Y100.701 E.02624
G1 X118.606 Y101.255 E.02666
G1 X119.161 Y101.838 E.02624
G1 X119.681 Y102.461 E.02645
G1 X120.161 Y103.123 E.02666
G1 X120.594 Y103.809 E.02645
G1 X120.977 Y104.517 E.02624
G1 X121.318 Y105.261 E.02666
G1 X121.604 Y106.013 E.02624
G1 X121.842 Y106.789 E.02645
G1 X122.03 Y107.585 E.02666
G1 X122.147 Y108.286 E.02317
G1 X122.253 Y109.487 E.03933
G1 X122.269 Y110.02 E.01738
G1 X122.243 Y110.814 E.02589
G1 X122.163 Y111.615 E.02624
G1 X122.028 Y112.422 E.02666
G1 X121.842 Y113.211 E.02645
G1 X121.606 Y113.981 E.02624
G1 X121.315 Y114.745 E.02666
G1 X120.977 Y115.483 E.02645
G1 X120.594 Y116.191 E.02624
G1 X120.158 Y116.883 E.02666
G1 X119.681 Y117.539 E.02645
G1 X119.166 Y118.157 E.02624
G1 X118.602 Y118.75 E.02666
G1 X118.005 Y119.299 E.02645
G1 X117.378 Y119.804 E.02624
G1 X116.708 Y120.274 E.02666
G1 X116.02 Y120.691 E.02624
G1 X115.3 Y121.066 E.02645
G1 X114.551 Y121.394 E.02666
G1 X113.795 Y121.668 E.02624
G1 X113.015 Y121.894 E.02645
G1 X112.216 Y122.068 E.02666
G1 X111.414 Y122.188 E.02645
G1 X110.612 Y122.255 E.02624
G1 X109.794 Y122.268 E.02666
G1 X108.984 Y122.228 E.02645
G1 X108.184 Y122.135 E.02624
G1 X107.38 Y121.987 E.02666
G1 X106.599 Y121.789 E.02624
