; HEADER_BLOCK_START
; generated by OrcaSlicer 1.9.0 on 2024-02-11 at 12:26:21
; total layer number: 200
; filament_density: 1.24
; filament_diameter: 1.75
; max_z_height: 40.00
; HEADER_BLOCK_END

; THUMBNAIL_BLOCK_START

;
; THUMBNAIL_BLOCK_END

; THUMBNAIL_BLOCK_START

;
; THUMBNAIL_BLOCK_END

; external perimeters extrusion width = 0.42mm
; perimeters extrusion width = 0.45mm
; infill extrusion width = 0.45mm
; solid infill extrusion width = 0.46mm
; top infill extrusion width = 0.42mm
; support material extrusion width = 0.38mm
; first layer extrusion width = 0.46mm

; EXECUTABLE_BLOCK_START
M73 P0 R32
;TYPE:Custom
START_PRINT EXTRUDER_TEMP=220 BED_TEMP=30
G90
G21
M83 ; use relative distances for extrusion
; filament start gcode
M106 S0
;LAYER_CHANGE
;Z:0.2
;HEIGHT:0.2
;BEFORE_LAYER_CHANGE
;0.2
G92 E0

G1 E-5 F1800
;_SET_FAN_SPEED_CHANGING_LAYER
SET_VELOCITY_LIMIT ACCEL=500 ACCEL_TO_DECEL=250
SET_VELOCITY_LIMIT SQUARE_CORNER_VELOCITY=8
; printing object Stick4_TPU.stl id:0 copy 0
G1 Z.4 F9000
G1 X175.92 Y57.596
G1 Z.4
G1 Z.2
G1 E5 F1800
;TYPE:Inner wall
;WIDTH:0.459999
G1 F1200
G1 X175.899 Y57.725 E.00499
G1 X176.001 Y58.017 E.0118
G1 X176.518 Y58.795 E.03563
G1 X176.95 Y59.562 E.0336
G1 X177.304 Y60.317 E.03181
G1 X177.636 Y61.183 E.03537
G1 X177.887 Y62.026 E.03355
G1 X178.075 Y62.886 E.03358
G1 X178.255 Y64.264 E.05303
;WIDTH:0.416637
G1 X178.299 Y64.594 E.01138
;WIDTH:0.373274
G1 X178.3 Y64.624 E.00089
;WIDTH:0.370979
G1 X178.297 Y65.347 E.0217
;WIDTH:0.414485
G1 X178.261 Y65.583 E.00813
;WIDTH:0.459999
G1 X178.179 Y66.393 E.03106
G1 X178.041 Y67.263 E.03358
G1 X177.84 Y68.12 E.0336
G1 X177.591 Y68.917 E.03183
G1 X177.268 Y69.736 E.03361
G1 X176.886 Y70.528 E.03356
G1 X176.42 Y71.33 E.03537
G1 X175.95 Y72.018 E.0318
G1 X175.401 Y72.707 E.0336
G1 X174.804 Y73.353 E.03355
G1 X174.124 Y73.983 E.03537
G1 X173.472 Y74.503 E.03181
G1 X172.746 Y75.001 E.0336
G1 X171.985 Y75.444 E.03358
G1 X171.193 Y75.829 E.03358
G1 X170.375 Y76.154 E.03358
G1 X169.535 Y76.417 E.03358
G1 X168.678 Y76.618 E.03358
G1 X168.006 Y76.723 E.02593
G1 X167.194 Y76.819 E.0312
;WIDTH:0.428943
G1 X166.926 Y76.856 E.00957
;WIDTH:0.397887
G1 X166.416 Y76.884 E.01657
;WIDTH:0.382762
G1 X166.129 Y76.862 E.00895
;WIDTH:0.415444
G1 X165.842 Y76.84 E.00981
;WIDTH:0.459999
G1 X165.172 Y76.772 E.02569
G1 X164.302 Y76.648 E.03354
G1 X163.397 Y76.446 E.03538
G1 X162.597 Y76.207 E.03182
G1 X161.775 Y75.893 E.03359
G1 X160.978 Y75.519 E.03358
G1 X160.211 Y75.086 E.03358
G1 X159.444 Y74.575 E.03517
G1 X159.151 Y74.473 E.01182
G1 X158.849 Y74.522 E.01168
G1 X158.655 Y74.654 E.00896
G1 X155.097 Y78.211 E.19195
G1 X153.183 Y76.298 E.10322
G1 X156.741 Y72.74 E.19195
G1 X156.873 Y72.546 E.00897
G1 X156.922 Y72.244 E.01168
G1 X156.819 Y71.951 E.01183
G1 X156.315 Y71.194 E.0347
G1 X155.861 Y70.385 E.03538
G1 X155.507 Y69.63 E.03181
G1 X155.192 Y68.808 E.03359
G1 X154.939 Y67.965 E.03358
G1 X154.75 Y67.106 E.03354
G1 X154.569 Y65.737 E.05268
;WIDTH:0.418421
G1 X154.528 Y65.44 E.01031
;WIDTH:0.376842
G1 X154.513 Y64.889 E.01685
;WIDTH:0.388603
G1 X154.54 Y64.642 E.00784
;WIDTH:0.424301
G1 X154.568 Y64.396 E.00865
;WIDTH:0.459999
G1 X154.639 Y63.598 E.03056
G1 X154.775 Y62.729 E.03354
G1 X154.988 Y61.826 E.03538
G1 X155.237 Y61.03 E.03182
G1 X155.561 Y60.212 E.03358
G1 X155.945 Y59.42 E.03358
G1 X156.387 Y58.658 E.03358
G1 X156.885 Y57.932 E.03359
G1 X157.405 Y57.28 E.03182
G1 X158.034 Y56.599 E.03538
G1 X158.679 Y56.001 E.03354
G1 X159.367 Y55.452 E.03358
G1 X160.094 Y54.955 E.03358
G1 X160.856 Y54.514 E.03358
G1 X161.649 Y54.131 E.03359
G1 X162.424 Y53.823 E.03181
G1 X163.308 Y53.545 E.03537
G1 X163.931 Y53.401 E.02438
G1 X164.552 Y53.287 E.02409
G1 X165.466 Y53.165 E.03518
;WIDTH:0.434047
G1 X165.839 Y53.122 E.01344
;WIDTH:0.408094
G1 X166.116 Y53.104 E.00927
;WIDTH:0.379436
G1 X166.393 Y53.086 E.00854
;WIDTH:0.400672
G1 X166.979 Y53.121 E.01922
;WIDTH:0.430336
G1 X167.325 Y53.16 E.01233
;WIDTH:0.459999
G1 X168.542 Y53.325 E.04685
G1 X169.402 Y53.516 E.0336
G1 X170.201 Y53.755 E.03181
G1 X171.067 Y54.085 E.03537
G1 X171.863 Y54.461 E.03356
G1 X172.629 Y54.895 E.0336
G1 X173.377 Y55.393 E.03429
G1 X173.67 Y55.496 E.01184
G1 X173.972 Y55.447 E.01168
G1 X174.166 Y55.315 E.00896
G1 X177.724 Y51.757 E.19195
G1 X179.637 Y53.671 E.10322
G1 X176.08 Y57.228 E.19193
G1 X175.948 Y57.423 E.00897
G1 X175.926 Y57.556 E.00517
G1 E-3.5 F1800
;WIPE_START
G1 F1200
G1 X175.899 Y57.725 E-.25608
G1 X176.001 Y58.017 E-.46396
G1 X176.289 Y58.45 E-.77996
;WIPE_END
G1 Z.6 F9000
G1 X176.821 Y63.403 Z.6
G1 Z.2
G1 E5 F1800
G1 F1200
G1 X176.914 Y63.419 E.00359
G1 X177.302 Y63.603 E.01638
G1 X177.629 Y63.881 E.01637
G1 X177.873 Y64.234 E.01637
G1 X177.923 Y64.439 E.00805
;WIDTH:0.415489
G1 X177.973 Y64.644 E.00719
;WIDTH:0.370979
G1 X177.999 Y65.059 E.01247
;WIDTH:0.37992
G1 X177.975 Y65.269 E.0065
;WIDTH:0.407607
G1 X177.951 Y65.478 E.00704
;WIDTH:0.433803
G1 X177.871 Y65.677 E.00766
;WIDTH:0.459999
G1 X177.792 Y65.876 E.00818
G1 X177.514 Y66.203 E.01637
G1 X177.161 Y66.447 E.01637
G1 X176.757 Y66.591 E.01637
G1 X176.329 Y66.626 E.01637
G1 X175.907 Y66.549 E.01637
G1 X175.519 Y66.365 E.01637
G1 X175.192 Y66.088 E.01637
G1 X175.029 Y65.876 E.01017
G1 X174.837 Y65.465 E.0173
G1 X174.766 Y64.926 E.02075
G1 X174.846 Y64.481 E.01727
G1 X175.029 Y64.093 E.01637
G1 X175.307 Y63.766 E.01637
G1 X175.66 Y63.522 E.01637
G1 X176.064 Y63.377 E.01637
G1 X176.471 Y63.343 E.01558
G1 X176.782 Y63.397 E.01202
G1 X176.752 Y63.804 F9000
;TYPE:Outer wall
G1 F1200
G1 X176.755 Y63.805 E.0001
G1 X177.048 Y63.934 E.01224
G1 X177.359 Y64.214 E.01598
G1 X177.488 Y64.394 E.00841
G1 X177.604 Y64.693 E.01224
G1 X177.639 Y65.012 E.01224
G1 X177.59 Y65.329 E.01224
G1 X177.461 Y65.622 E.01224
G1 X177.26 Y65.872 E.01224
G1 X176.924 Y66.094 E.01535
G1 X176.702 Y66.178 E.00905
G1 X176.383 Y66.213 E.01224
G1 X175.98 Y66.128 E.0157
G1 X175.713 Y65.988 E.01153
G1 X175.481 Y65.78 E.01189
G1 X175.36 Y65.622 E.00758
G1 X175.217 Y65.276 E.01429
G1 X175.182 Y64.957 E.01224
G1 X175.231 Y64.64 E.01224
G1 X175.36 Y64.347 E.01224
G1 X175.561 Y64.096 E.01224
G1 X175.82 Y63.907 E.01224
G1 X176.119 Y63.791 E.01224
G1 X176.422 Y63.757 E.01164
G1 X176.712 Y63.799 E.01119
G1 E-3.5 F1800
;WIPE_START
G1 F1200
G1 X176.755 Y63.805 E-.06389
G1 X177.048 Y63.934 E-.48132
G1 X177.359 Y64.214 E-.62818
G1 X177.486 Y64.391 E-.3266
;WIPE_END
G1 Z.6 F9000
G1 X171.834 Y68.56 Z.6
G1 Z.2
G1 E5 F1800
;TYPE:Inner wall
G1 F1200
G1 X171.744 Y68.591 E.00362
G1 X171.329 Y68.626 E.01591
G1 X170.907 Y68.549 E.01637
G1 X170.517 Y68.362 E.01649
G1 X170.192 Y68.088 E.01623
G1 X169.948 Y67.735 E.01637
G1 X169.803 Y67.311 E.01708
G1 X169.769 Y67.071 E.00926
G1 X169.824 Y66.54 E.02035
G1 X170.037 Y66.085 E.01915
G1 X170.316 Y65.759 E.01639
G1 X170.667 Y65.519 E.01621
;WIDTH:0.509903
G1 X170.882 Y65.436 E.00984
;WIDTH:0.559807
G1 X171.097 Y65.352 E.01089
;WIDTH:0.609711
G1 X171.312 Y65.269 E.01194
G1 X171.51 Y65.282 E.0103
;WIDTH:0.588295
G1 X171.727 Y65.362 E.01153
;WIDTH:0.54553
G1 X171.944 Y65.442 E.01063
;WIDTH:0.502765
G1 X172.161 Y65.522 E.00972
;WIDTH:0.459999
G1 X172.592 Y65.836 E.02036
G1 X172.873 Y66.234 E.01859
G1 X173.018 Y66.638 E.01637
G1 X173.052 Y67.066 E.01637
G1 X172.975 Y67.488 E.01637
G1 X172.781 Y67.89 E.01704
G1 X172.514 Y68.203 E.01569
G1 X172.161 Y68.447 E.01637
G1 X171.872 Y68.547 E.01166
G1 X171.7 Y68.173 F9000
;TYPE:Outer wall
G1 F1200
G1 X171.687 Y68.178 E.00054
G1 X171.383 Y68.213 E.01166
G1 X171.066 Y68.164 E.01224
G1 X170.769 Y68.029 E.01246
G1 X170.523 Y67.834 E.01199
G1 X170.333 Y67.575 E.01224
G1 X170.216 Y67.253 E.01306
G1 X170.182 Y67.013 E.00926
G1 X170.231 Y66.64 E.01435
G1 X170.37 Y66.337 E.01273
G1 X170.57 Y66.089 E.01214
G1 X170.827 Y65.904 E.01207
G1 X171.119 Y65.791 E.01195
G1 X171.45 Y65.759 E.01271
G1 X171.762 Y65.808 E.01202
G1 X172.048 Y65.934 E.01195
G1 X172.34 Y66.189 E.01477
G1 X172.513 Y66.454 E.01209
G1 X172.613 Y66.76 E.01227
G1 X172.629 Y67.087 E.01247
G1 X172.554 Y67.414 E.01282
G1 X172.45 Y67.636 E.00936
G1 X172.26 Y67.872 E.01155
G1 X172.001 Y68.062 E.01224
G1 X171.738 Y68.159 E.01071
G1 E-3.5 F1800
;WIPE_START
G1 F1200
G1 X171.687 Y68.178 E-.08141
G1 X171.383 Y68.213 E-.45844
G1 X171.066 Y68.164 E-.48114
G1 X170.775 Y68.032 E-.479
;WIPE_END
G1 Z.6 F9000
G1 X167.001 Y70.812 Z.6
G1 Z.2
G1 E5 F1800
;TYPE:Inner wall
G1 F1200
G1 X166.948 Y70.735 E.00361
G1 X166.849 Y70.495 E.00989
;WIDTH:0.509308
G1 X166.796 Y70.345 E.00677
;WIDTH:0.558616
G1 X166.744 Y70.195 E.00749
;WIDTH:0.607924
G1 X166.692 Y70.045 E.0082
;WIDTH:0.612588
G1 X166.693 Y69.893 E.00795
G1 X166.756 Y69.73 E.0091
;WIDTH:0.574441
G1 X166.819 Y69.567 E.00849
;WIDTH:0.536294
G1 X166.882 Y69.404 E.00788
;WIDTH:0.498147
G1 X166.945 Y69.241 E.00727
;WIDTH:0.459999
G1 X167.253 Y68.812 E.02016
G1 X167.66 Y68.522 E.01907
G1 X168.064 Y68.377 E.01637
G1 X168.511 Y68.347 E.01709
G1 X168.921 Y68.422 E.01591
G1 X169.302 Y68.603 E.01608
G1 X169.634 Y68.887 E.01667
G1 X169.876 Y69.241 E.01635
G1 X170.018 Y69.638 E.01608
G1 X170.05 Y70.083 E.017
G1 X169.975 Y70.488 E.01574
G1 X169.792 Y70.876 E.01637
G1 X169.514 Y71.203 E.01637
G1 X169.161 Y71.447 E.01637
G1 X168.768 Y71.588 E.01592
G1 X168.329 Y71.626 E.01681
G1 X167.907 Y71.549 E.01637
G1 X167.529 Y71.371 E.01592
G1 X167.192 Y71.088 E.01682
G1 X167.024 Y70.845 E.01124
G1 X167.337 Y70.581 F9000
;TYPE:Outer wall
G1 F1200
G1 X167.333 Y70.575 E.00027
G1 X167.234 Y70.336 E.00989
G1 X167.182 Y69.957 E.01457
G1 X167.231 Y69.64 E.01224
G1 X167.368 Y69.34 E.01259
G1 X167.561 Y69.097 E.01185
G1 X167.82 Y68.907 E.01224
G1 X168.119 Y68.791 E.01224
G1 X168.46 Y68.761 E.01306
G1 X168.762 Y68.808 E.01166
G1 X169.048 Y68.934 E.01195
G1 X169.303 Y69.141 E.01253
G1 X169.491 Y69.401 E.01221
G1 X169.604 Y69.693 E.01195
G1 X169.637 Y70.028 E.01286
G1 X169.59 Y70.329 E.0116
G1 X169.461 Y70.622 E.01224
G1 X169.26 Y70.872 E.01224
G1 X169.001 Y71.062 E.01224
G1 X168.711 Y71.175 E.01189
G1 X168.383 Y71.213 E.01257
G1 X168.066 Y71.164 E.01224
G1 X167.781 Y71.038 E.01189
G1 X167.523 Y70.834 E.01257
G1 X167.361 Y70.613 E.01044
G1 E-3.5 F1800
;WIPE_START
G1 F1200
G1 X167.333 Y70.575 E-.0707
G1 X167.234 Y70.336 E-.38875
G1 X167.182 Y69.957 E-.57292
G1 X167.23 Y69.649 E-.46763
;WIPE_END
G1 Z.6 F9000
G1 X165.624 Y76.409 Z.6
G1 Z.2
G1 E5 F1800
;TYPE:Inner wall
G1 F1200
G1 X165.519 Y76.365 E.00433
G1 X165.192 Y76.088 E.01637
G1 X164.948 Y75.735 E.01637
G1 X164.803 Y75.33 E.01637
G1 X164.775 Y74.852 E.01827
G1 X164.846 Y74.481 E.01444
G1 X165.029 Y74.093 E.01637
G1 X165.307 Y73.766 E.01637
G1 X165.66 Y73.522 E.01637
G1 X166.132 Y73.368 E.01891
G1 X166.471 Y73.343 E.01299
G1 X166.914 Y73.419 E.01714
G1 X167.302 Y73.603 E.01638
G1 X167.617 Y73.866 E.01566
G1 X167.873 Y74.234 E.01709
G1 X168.018 Y74.638 E.01637
G1 X168.046 Y75.117 E.0183
G1 X167.975 Y75.488 E.01441
G1 X167.792 Y75.876 E.01637
G1 X167.514 Y76.203 E.01637
G1 X167.161 Y76.447 E.01637
G1 X166.956 Y76.497 E.00805
;WIDTH:0.414723
G1 X166.751 Y76.547 E.00717
;WIDTH:0.369446
G1 X166.336 Y76.573 E.01242
;WIDTH:0.384483
G1 X166.125 Y76.551 E.00661
;WIDTH:0.415444
G1 X165.915 Y76.529 E.00721
;WIDTH:0.459999
G1 X165.661 Y76.424 E.01049
G1 X165.777 Y76.036 F9000
;TYPE:Outer wall
G1 F1200
G1 X165.773 Y76.035 E.00017
G1 X165.523 Y75.834 E.01224
G1 X165.333 Y75.575 E.01224
G1 X165.202 Y75.162 E.01653
G1 X165.189 Y74.907 E.00975
G1 X165.269 Y74.547 E.01406
G1 X165.406 Y74.286 E.01124
G1 X165.625 Y74.047 E.01238
G1 X165.887 Y73.879 E.01188
G1 X166.186 Y73.782 E.01198
G1 X166.422 Y73.757 E.00905
G1 X166.755 Y73.805 E.01281
G1 X167.048 Y73.934 E.01224
G1 X167.294 Y74.13 E.012
G1 X167.488 Y74.394 E.01248
G1 X167.614 Y74.77 E.01515
G1 X167.632 Y75.063 E.01118
G1 X167.59 Y75.329 E.01027
G1 X167.461 Y75.622 E.01224
G1 X167.26 Y75.872 E.01224
G1 X167.001 Y76.062 E.01224
G1 X166.702 Y76.178 E.01224
G1 X166.383 Y76.213 E.01224
G1 X166.066 Y76.164 E.01224
G1 X165.813 Y76.053 E.01054
G1 E-3.5 F1800
;WIPE_START
G1 F1200
G1 X165.773 Y76.035 E-.0668
G1 X165.523 Y75.834 E-.48114
G1 X165.333 Y75.575 E-.48114
G1 X165.238 Y75.276 E-.47092
;WIPE_END
G1 Z.6 F9000
G1 X166.082 Y70.171 Z.6
G1 Z.2
G1 E5 F1800
;TYPE:Inner wall
;WIDTH:0.589275
G1 F1200
G1 X166.035 Y70.299 E.00681
;WIDTH:0.546183
G1 X165.954 Y70.517 E.01069
;WIDTH:0.503091
G1 X165.873 Y70.735 E.00977
;WIDTH:0.459999
G1 X165.558 Y71.166 E.02037
G1 X165.161 Y71.447 E.01858
G1 X164.768 Y71.588 E.01592
G1 X164.329 Y71.626 E.01681
G1 X163.907 Y71.549 E.01637
G1 X163.529 Y71.371 E.01592
G1 X163.192 Y71.088 E.01681
G1 X162.948 Y70.735 E.01637
G1 X162.804 Y70.318 E.01681
G1 X162.77 Y69.89 E.01638
G1 X162.849 Y69.474 E.01617
G1 X163.033 Y69.091 E.0162
G1 X163.307 Y68.766 E.01623
G1 X163.66 Y68.522 E.01637
G1 X164.064 Y68.377 E.01637
G1 X164.506 Y68.346 E.0169
G1 X164.914 Y68.42 E.01582
G1 X165.302 Y68.603 E.01637
G1 X165.636 Y68.89 E.0168
G1 X165.876 Y69.241 E.01621
;WIDTH:0.498147
G1 X165.939 Y69.404 E.00727
;WIDTH:0.536294
G1 X166.002 Y69.567 E.00788
;WIDTH:0.574441
G1 X166.065 Y69.73 E.00849
;WIDTH:0.612588
G1 X166.128 Y69.893 E.0091
G1 X166.116 Y70.082 E.00986
;WIDTH:0.589275
G1 X166.096 Y70.134 E.00279
G1 X165.638 Y70.019 F9000
;TYPE:Outer wall
;WIDTH:0.459999
G1 F1200
G1 X165.587 Y70.336 E.01224
G1 X165.461 Y70.622 E.01195
G1 X165.195 Y70.922 E.01526
G1 X164.94 Y71.087 E.01159
G1 X164.623 Y71.187 E.01269
G1 X164.308 Y71.203 E.01203
G1 X163.98 Y71.128 E.01282
G1 X163.781 Y71.038 E.00835
G1 X163.523 Y70.834 E.01257
G1 X163.333 Y70.575 E.01224
G1 X163.217 Y70.261 E.01278
G1 X163.184 Y69.945 E.01213
G1 X163.234 Y69.633 E.01203
G1 X163.366 Y69.343 E.01217
G1 X163.561 Y69.097 E.01198
G1 X163.82 Y68.907 E.01224
G1 X164.119 Y68.791 E.01224
G1 X164.455 Y68.76 E.01287
G1 X164.817 Y68.831 E.01409
G1 X165.048 Y68.934 E.00965
G1 X165.305 Y69.144 E.01267
G1 X165.491 Y69.401 E.01207
G1 X165.604 Y69.693 E.01195
G1 X165.634 Y69.979 E.01098
G1 E-3.5 F1800
;WIPE_START
G1 F1200
G1 X165.587 Y70.336 E-.53953
G1 X165.461 Y70.622 E-.46983
G1 X165.244 Y70.867 E-.49063
;WIPE_END
G1 Z.6 F9000
G1 X160.589 Y65.572 Z.6
G1 Z.2
G1 E5 F1800
;TYPE:Inner wall
G1 F1200
G1 X160.667 Y65.519 E.0036
;WIDTH:0.509903
G1 X160.882 Y65.436 E.00984
;WIDTH:0.559807
G1 X161.097 Y65.352 E.01089
;WIDTH:0.609711
G1 X161.312 Y65.269 E.01194
G1 X161.51 Y65.282 E.0103
;WIDTH:0.588295
G1 X161.727 Y65.362 E.01153
;WIDTH:0.54553
G1 X161.944 Y65.442 E.01063
;WIDTH:0.502765
G1 X162.161 Y65.522 E.00972
;WIDTH:0.459999
G1 X162.583 Y65.827 E.01988
G1 X162.873 Y66.234 E.01907
G1 X163.02 Y66.657 E.01708
G1 X163.051 Y67.073 E.01593
G1 X162.975 Y67.488 E.01609
G1 X162.792 Y67.876 E.01637
G1 X162.507 Y68.208 E.01667
G1 X162.154 Y68.45 E.01635
G1 X161.748 Y68.591 E.01637
G1 X161.312 Y68.624 E.01668
G1 X160.907 Y68.549 E.01574
G1 X160.529 Y68.371 E.01592
G1 X160.192 Y68.088 E.01681
G1 X159.948 Y67.735 E.01637
G1 X159.807 Y67.342 E.01592
G1 X159.769 Y66.903 E.01681
G1 X159.846 Y66.48 E.01637
G1 X160.024 Y66.103 E.01592
G1 X160.316 Y65.759 E.01725
G1 X160.556 Y65.594 E.01109
G1 X160.82 Y65.909 F9000
;TYPE:Outer wall
G1 F1200
G1 X160.827 Y65.904 E.00034
G1 X161.119 Y65.791 E.01195
G1 X161.45 Y65.759 E.01271
G1 X161.762 Y65.808 E.01202
G1 X162.048 Y65.934 E.01195
G1 X162.298 Y66.135 E.01224
G1 X162.488 Y66.394 E.01224
G1 X162.607 Y66.712 E.01294
G1 X162.638 Y67.019 E.01179
G1 X162.59 Y67.329 E.01195
G1 X162.461 Y67.622 E.01224
G1 X162.253 Y67.877 E.01254
G1 X161.994 Y68.065 E.01221
G1 X161.691 Y68.178 E.01235
G1 X161.367 Y68.211 E.01243
G1 X161.066 Y68.164 E.0116
G1 X160.781 Y68.038 E.01189
G1 X160.523 Y67.834 E.01257
G1 X160.333 Y67.575 E.01224
G1 X160.22 Y67.284 E.01189
G1 X160.182 Y66.957 E.01257
G1 X160.231 Y66.64 E.01224
G1 X160.356 Y66.355 E.01189
G1 X160.57 Y66.089 E.013
G1 X160.787 Y65.933 E.01021
G1 E-3.5 F1800
;WIPE_START
G1 F1200
G1 X160.827 Y65.904 E-.07339
G1 X161.119 Y65.791 E-.46984
G1 X161.45 Y65.759 E-.49957
G1 X161.752 Y65.806 E-.4572
;WIPE_END
G1 Z.6 F9000
G1 X162.987 Y62.553 Z.6
G1 Z.2
G1 E5 F1800
;TYPE:Inner wall
G1 F1200
G1 X163.018 Y62.638 E.00345
G1 X163.05 Y63.083 E.017
G1 X162.972 Y63.495 E.01602
G1 X162.792 Y63.876 E.01608
G1 X162.514 Y64.203 E.01637
G1 X162.161 Y64.447 E.01637
;WIDTH:0.502765
