; HEADER_BLOCK_START
; generated by OrcaSlicer 1.9.0 on 2024-01-27 at 09:58:30
; total layer number: 200
; filament_density: 1.27
; filament_diameter: 1.75
; max_z_height: 40.00
; HEADER_BLOCK_END

; THUMBNAIL_BLOCK_START

;
; THUMBNAIL_BLOCK_END

; THUMBNAIL_BLOCK_START

;
; THUMBNAIL_BLOCK_END

; external perimeters extrusion width = 0.42mm
; perimeters extrusion width = 0.45mm
; infill extrusion width = 0.45mm
; solid infill extrusion width = 0.46mm
; top infill extrusion width = 0.42mm
; first layer extrusion width = 0.46mm

; EXECUTABLE_BLOCK_START
M73 P0 R27
;TYPE:Custom
START_PRINT EXTRUDER_TEMP=232 BED_TEMP=80
G90
G21
M83 ; use relative distances for extrusion
; filament start gcode
M106 S0
;LAYER_CHANGE
;Z:0.2
;HEIGHT:0.2
;BEFORE_LAYER_CHANGE
;0.2
G92 E0

G1 E-1.5 F1500
;_SET_FAN_SPEED_CHANGING_LAYER
SET_VELOCITY_LIMIT ACCEL=500 ACCEL_TO_DECEL=250
SET_VELOCITY_LIMIT SQUARE_CORNER_VELOCITY=8
; printing object Stick3.stl id:3550818119541149779 copy 0
G1 Z.4 F9000
G1 X121.905 Y110.006
G1 Z.4
G1 Z.2
G1 E1.5 F1500
;TYPE:Inner wall
;WIDTH:0.36667
G1 F1800
G1 X121.886 Y110.353 E.0088
;WIDTH:0.413335
G1 X121.854 Y110.609 E.00748
;WIDTH:0.459999
G1 X121.726 Y111.726 E.03664
G1 X121.569 Y112.577 E.02822
G1 X121.35 Y113.415 E.02822
G1 X121.07 Y114.234 E.02822
G1 X120.732 Y115.031 E.02822
G1 X120.336 Y115.801 E.02822
G1 X119.885 Y116.54 E.02822
G1 X119.381 Y117.244 E.02822
G1 X118.827 Y117.909 E.02822
G1 X118.227 Y118.533 E.02822
G1 X117.583 Y119.11 E.02819
G1 X116.859 Y119.664 E.02971
G1 X116.174 Y120.117 E.02677
G1 X115.419 Y120.541 E.02822
G1 X114.636 Y120.908 E.02822
G1 X113.827 Y121.218 E.02822
G1 X112.999 Y121.467 E.02819
G1 X112.25 Y121.631 E.02501
G1 X111.652 Y121.729 E.01975
G1 X110.777 Y121.839 E.02872
;WIDTH:0.419531
G1 X110.428 Y121.885 E.01037
;WIDTH:0.379063
G1 X109.762 Y121.895 E.01749
;WIDTH:0.393265
G1 X109.612 Y121.872 E.00416
;WIDTH:0.426632
G1 X109.462 Y121.849 E.00456
;WIDTH:0.459999
G1 X108.704 Y121.781 E.02481
G1 X107.847 Y121.655 E.02822
G1 X107.002 Y121.467 E.02822
G1 X106.173 Y121.218 E.02822
G1 X105.364 Y120.908 E.02822
G1 X104.581 Y120.541 E.02822
G1 X103.826 Y120.117 E.02822
G1 X103.104 Y119.64 E.02819
G1 X102.385 Y119.081 E.02971
G1 X101.773 Y118.533 E.02677
G1 X101.173 Y117.91 E.02819
G1 X100.593 Y117.208 E.02971
G1 X100.115 Y116.54 E.02677
G1 X99.664 Y115.801 E.02822
G1 X99.268 Y115.031 E.02822
G1 X98.93 Y114.234 E.02822
G1 X98.65 Y113.415 E.02822
G1 X98.431 Y112.578 E.02819
G1 X98.25 Y111.512 E.03527
G1 X98.144 Y110.573 E.0308
;WIDTH:0.410509
G1 X98.108 Y110.287 E.00826
;WIDTH:0.36397
G1 X98.111 Y109.683 E.01517
;WIDTH:0.411985
G1 X98.145 Y109.409 E.00796
;WIDTH:0.459999
G1 X98.274 Y108.274 E.03722
G1 X98.431 Y107.423 E.02822
G1 X98.65 Y106.585 E.02822
G1 X98.93 Y105.766 E.02822
G1 X99.268 Y104.969 E.02822
G1 X99.664 Y104.199 E.02822
G1 X100.115 Y103.46 E.02822
G1 X100.619 Y102.756 E.02822
G1 X101.173 Y102.091 E.02822
G1 X101.773 Y101.467 E.02822
G1 X102.417 Y100.89 E.02819
G1 X103.141 Y100.336 E.02971
G1 X103.826 Y99.883 E.02677
G1 X104.581 Y99.459 E.02822
G1 X105.364 Y99.092 E.02822
G1 X106.172 Y98.783 E.02819
G1 X107.046 Y98.523 E.02971
G1 X107.847 Y98.345 E.02677
G1 X109.207 Y98.165 E.04473
;WIDTH:0.425763
G1 X109.559 Y98.122 E.01059
;WIDTH:0.391526
G1 X110.055 Y98.103 E.01352
;WIDTH:0.381493
G1 X110.357 Y98.125 E.00803
;WIDTH:0.412343
G1 X110.66 Y98.148 E.00876
;WIDTH:0.459999
G1 X111.296 Y98.219 E.02088
G1 X112.153 Y98.345 E.02822
G1 X112.998 Y98.533 E.02822
G1 X113.827 Y98.782 E.02822
G1 X114.636 Y99.092 E.02822
G1 X115.419 Y99.459 E.02822
G1 X116.174 Y99.883 E.02822
G1 X116.896 Y100.36 E.02822
G1 X117.582 Y100.89 E.02822
G1 X118.227 Y101.467 E.02822
G1 X118.827 Y102.09 E.02819
G1 X119.407 Y102.792 E.02971
G1 X119.885 Y103.46 E.02677
G1 X120.336 Y104.199 E.02822
G1 X120.732 Y104.969 E.02822
G1 X121.07 Y105.766 E.02822
G1 X121.35 Y106.585 E.02822
G1 X121.569 Y107.422 E.02819
G1 X121.711 Y108.208 E.02604
G1 X121.857 Y109.46 E.04109
;WIDTH:0.410842
G1 X121.881 Y109.733 E.00788
;WIDTH:0.382443
G1 X121.902 Y109.966 E.00621
G1 X121.429 Y109.205 F9000
;WIDTH:0.459999
G1 F1800
G1 X121.477 Y109.278 E.00283
G1 X121.52 Y109.475 E.00661
;WIDTH:0.413335
G1 X121.564 Y109.673 E.00587
;WIDTH:0.36667
G1 X121.59 Y110.072 E.01011
;WIDTH:0.404668
G1 X121.535 Y110.391 E.00915
;WIDTH:0.454087
G1 X121.479 Y110.71 E.0104
;WIDTH:0.459999
G1 X121.255 Y111.061 E.01358
G1 X120.946 Y111.345 E.01368
G1 X120.493 Y111.572 E.01653
G1 X120.025 Y111.644 E.01543
G1 X119.615 Y111.599 E.01344
G1 X119.248 Y111.46 E.01279
G1 X118.893 Y111.216 E.01407
G1 X118.594 Y110.846 E.01549
G1 X118.444 Y110.532 E.01135
G1 X118.361 Y110.128 E.01344
G1 X118.38 Y109.716 E.01344
G1 X118.495 Y109.341 E.01279
G1 X118.717 Y108.971 E.01407
G1 X119.014 Y108.685 E.01344
G1 X119.372 Y108.481 E.01344
G1 X119.769 Y108.372 E.01344
G1 X120.161 Y108.365 E.01279
G1 X120.582 Y108.462 E.01407
G1 X120.946 Y108.655 E.01344
G1 X121.251 Y108.933 E.01343
G1 X121.407 Y109.172 E.0093
G1 X121.088 Y109.429 F9000
;TYPE:Outer wall
G1 F1800
G1 X121.089 Y109.431 E.00009
G1 X121.196 Y109.72 E.01004
G1 X121.229 Y110.026 E.01004
G1 X121.183 Y110.331 E.01004
G1 X121.07 Y110.601 E.00955
G1 X120.878 Y110.86 E.01052
G1 X120.636 Y111.051 E.01005
G1 X120.355 Y111.176 E.01004
G1 X120.051 Y111.228 E.01004
G1 X119.744 Y111.202 E.01004
G1 X119.467 Y111.106 E.00955
G1 X119.197 Y110.93 E.01052
G1 X118.96 Y110.645 E.01209
G1 X118.848 Y110.428 E.00795
G1 X118.778 Y110.128 E.01004
G1 X118.784 Y109.82 E.01004
G1 X118.863 Y109.538 E.00955
G1 X119.021 Y109.257 E.01052
G1 X119.237 Y109.037 E.01005
G1 X119.501 Y108.877 E.01004
G1 X119.795 Y108.788 E.01004
G1 X120.088 Y108.776 E.00955
G1 X120.404 Y108.84 E.01052
G1 X120.755 Y109.039 E.01315
G1 X120.913 Y109.178 E.00687
G1 X121.065 Y109.396 E.00865
G1 E-1.05 F1500
;WIPE_START
G1 F1800
G1 X121.089 Y109.431 E-.01922
G1 X121.196 Y109.72 E-.1386
G1 X121.229 Y110.026 E-.13861
G1 X121.183 Y110.331 E-.13861
G1 X121.171 Y110.361 E-.01496
;WIPE_END
G1 Z.6 F9000
G1 X114.558 Y110.968 Z.6
G1 Z.2
G1 E1.5 F1500
;TYPE:Inner wall
G1 F1800
G1 X114.838 Y110.874 E.00963
G1 X115.055 Y110.855 E.00708
G1 X115.423 Y110.944 E.01235
G1 X115.703 Y111.106 E.01056
G1 X116.015 Y111.467 E.01557
G1 X116.144 Y111.938 E.0159
G1 X116.126 Y112.162 E.00733
G1 X115.988 Y112.583 E.01445
G1 X115.679 Y112.917 E.01482
G1 X115.423 Y113.056 E.00952
G1 X115.045 Y113.146 E.01266
G1 X114.577 Y113.056 E.01552
G1 X114.297 Y112.894 E.01056
G1 X114.001 Y112.563 E.01448
G1 X113.854 Y112.045 E.01756
G1 X113.944 Y111.577 E.01552
G1 X114.039 Y111.376 E.00725
G1 X114.404 Y111.02 E.01664
G1 X114.52 Y110.981 E.00398
G1 X114.685 Y111.347 F9000
;TYPE:Outer wall
G1 F1800
G1 X115.054 Y111.277 E.01224
G1 X115.408 Y111.401 E.01224
G1 X115.653 Y111.685 E.01224
G1 X115.723 Y112.054 E.01224
G1 X115.599 Y112.408 E.01224
G1 X115.315 Y112.653 E.01224
G1 X115.015 Y112.73 E.01009
G1 X114.638 Y112.634 E.01266
G1 X114.366 Y112.362 E.01257
G1 X114.273 Y111.963 E.01335
G1 X114.401 Y111.592 E.01279
G1 X114.655 Y111.373 E.01093
G1 E-1.05 F1500
;WIPE_START
G1 F1800
G1 X115.054 Y111.277 E-.18471
G1 X115.408 Y111.401 E-.1689
G1 X115.548 Y111.563 E-.0964
;WIPE_END
G1 Z.6 F9000
G1 X111.052 Y114.39 Z.6
G1 Z.2
G1 E1.5 F1500
;TYPE:Inner wall
G1 F1800
G1 X111.106 Y114.297 E.00352
G1 X111.297 Y114.106 E.0088
G1 X111.543 Y113.954 E.00943
G1 X111.955 Y113.854 E.01382
G1 X112.423 Y113.944 E.01552
G1 X112.703 Y114.106 E.01056
G1 X112.999 Y114.437 E.01448
G1 X113.146 Y114.955 E.01756
G1 X113.054 Y115.431 E.01581
G1 X112.894 Y115.703 E.01027
G1 X112.582 Y115.989 E.01378
G1 X112.101 Y116.139 E.01644
G1 X111.838 Y116.126 E.00857
G1 X111.396 Y115.975 E.01524
G1 X111.019 Y115.595 E.01745
G1 X110.874 Y115.162 E.01488
G1 X110.855 Y114.945 E.00708
G1 X110.944 Y114.577 E.01235
G1 X111.032 Y114.425 E.00574
G1 X111.401 Y114.592 F9000
;TYPE:Outer wall
G1 F1800
G1 X111.592 Y114.401 E.0088
G1 X111.963 Y114.273 E.01279
G1 X112.362 Y114.366 E.01335
G1 X112.634 Y114.638 E.01257
G1 X112.727 Y115.037 E.01335
G1 X112.599 Y115.408 E.01279
G1 X112.315 Y115.653 E.01224
G1 X111.946 Y115.723 E.01224
G1 X111.592 Y115.599 E.01224
G1 X111.347 Y115.315 E.01224
G1 X111.277 Y114.946 E.01224
G1 X111.388 Y114.629 E.01093
G1 E-1.05 F1500
;WIPE_START
G1 F1800
G1 X111.592 Y114.401 E-.13794
G1 X111.963 Y114.273 E-.17657
G1 X112.256 Y114.341 E-.13549
;WIPE_END
G1 Z.6 F9000
G1 X107.836 Y113.888 Z.6
G1 Z.2
G1 E1.5 F1500
;TYPE:Inner wall
G1 F1800
G1 X107.955 Y113.854 E.00403
G1 X108.423 Y113.944 E.01552
G1 X108.624 Y114.039 E.00725
G1 X108.98 Y114.404 E.01664
G1 X109.126 Y114.838 E.01492
G1 X109.145 Y115.055 E.00708
G1 X109.056 Y115.423 E.01235
G1 X108.894 Y115.703 E.01056
G1 X108.566 Y115.998 E.01439
G1 X108.084 Y116.142 E.01638
G1 X107.838 Y116.126 E.00804
G1 X107.417 Y115.988 E.01443
G1 X107.046 Y115.634 E.01673
G1 X106.917 Y115.321 E.01105
G1 X106.854 Y114.955 E.01208
G1 X106.944 Y114.577 E.01266
G1 X107.106 Y114.297 E.01056
G1 X107.437 Y114.001 E.01448
G1 X107.798 Y113.899 E.01223
G1 X107.946 Y114.277 F9000
;TYPE:Outer wall
G1 F1800
G1 X108.335 Y114.353 E.01293
G1 X108.628 Y114.628 E.01307
G1 X108.729 Y115.018 E.01316
G1 X108.628 Y115.372 E.012
G1 X108.338 Y115.646 E.01301
G1 X107.946 Y115.723 E.01301
G1 X107.592 Y115.599 E.01224
G1 X107.347 Y115.315 E.01224
G1 X107.277 Y114.946 E.01224
G1 X107.347 Y114.685 E.0088
G1 X107.592 Y114.401 E.01224
G1 X107.908 Y114.29 E.01093
G1 E-1.05 F1500
;WIPE_START
G1 F1800
G1 X108.335 Y114.353 E-.19427
G1 X108.628 Y114.628 E-.1804
G1 X108.67 Y114.79 E-.07533
;WIPE_END
G1 Z.6 F9000
G1 X105.898 Y111.324 Z.6
G1 Z.2
G1 E1.5 F1500
;TYPE:Inner wall
G1 F1800
G1 X105.999 Y111.436 E.00493
G1 X106.146 Y111.955 E.01758
G1 X106.056 Y112.423 E.01552
G1 X105.894 Y112.703 E.01056
G1 X105.563 Y112.999 E.01448
G1 X105.045 Y113.146 E.01756
G1 X104.577 Y113.056 E.01552
G1 X104.321 Y112.917 E.00952
G1 X103.987 Y112.538 E.01645
G1 X103.855 Y112.053 E.01637
G1 X103.928 Y111.639 E.01372
G1 X104.056 Y111.353 E.0102
G1 X104.299 Y111.104 E.01133
G1 X104.577 Y110.944 E.01048
G1 X105 Y110.853 E.0141
G1 X105.423 Y110.944 E.0141
G1 X105.703 Y111.106 E.01056
G1 X105.872 Y111.294 E.00823
G1 X105.599 Y111.592 F9000
;TYPE:Outer wall
G1 F1800
G1 X105.727 Y111.963 E.01279
G1 X105.634 Y112.362 E.01335
G1 X105.362 Y112.634 E.01257
G1 X104.963 Y112.727 E.01335
G1 X104.592 Y112.599 E.01279
G1 X104.347 Y112.315 E.01224
G1 X104.277 Y111.946 E.01224
G1 X104.401 Y111.592 E.01224
G1 X104.592 Y111.4 E.00883
G1 X104.946 Y111.277 E.01221
G1 X105.315 Y111.347 E.01224
G1 X105.569 Y111.566 E.01093
G1 E-1.05 F1500
;WIPE_START
G1 F1800
G1 X105.727 Y111.963 E-.19233
G1 X105.634 Y112.362 E-.18424
G1 X105.519 Y112.477 E-.07344
;WIPE_END
G1 Z.6 F9000
G1 X105.898 Y108.676 Z.6
G1 Z.2
G1 E1.5 F1500
;TYPE:Inner wall
G1 F1800
G1 X105.703 Y108.894 E.00954
G1 X105.423 Y109.056 E.01056
G1 X105 Y109.147 E.0141
G1 X104.577 Y109.056 E.0141
G1 X104.297 Y108.894 E.01056
G1 X103.994 Y108.551 E.01491
G1 X103.853 Y108.026 E.01771
G1 X103.965 Y107.514 E.01709
G1 X104.106 Y107.297 E.00844
G1 X104.416 Y107.013 E.0137
G1 X104.888 Y106.863 E.01616
G1 X105.162 Y106.874 E.00893
G1 X105.563 Y107.001 E.01371
G1 X105.931 Y107.337 E.01625
G1 X106.056 Y107.577 E.00883
G1 X106.146 Y108.045 E.01552
G1 X105.999 Y108.564 E.01758
G1 X105.925 Y108.646 E.00362
G1 X105.599 Y108.408 F9000
;TYPE:Outer wall
G1 F1800
G1 X105.315 Y108.653 E.01224
G1 X104.946 Y108.723 E.01224
G1 X104.592 Y108.599 E.01224
G1 X104.347 Y108.315 E.01224
G1 X104.27 Y108.009 E.01029
G1 X104.369 Y107.632 E.0127
G1 X104.665 Y107.353 E.01325
G1 X105.054 Y107.277 E.01292
G1 X105.408 Y107.401 E.01224
G1 X105.653 Y107.685 E.01224
G1 X105.723 Y108.054 E.01224
G1 X105.612 Y108.371 E.01093
G1 E-1.05 F1500
;WIPE_START
G1 F1800
G1 X105.315 Y108.653 E-.1847
G1 X104.946 Y108.723 E-.1689
G1 X104.744 Y108.652 E-.0964
;WIPE_END
G1 Z.6 F9000
G1 X98.684 Y110.971 Z.6
G1 Z.2
G1 E1.5 F1500
;TYPE:Inner wall
G1 F1800
G1 X98.625 Y110.902 E.00296
G1 X98.458 Y110.528 E.01335
;WIDTH:0.432283
G1 X98.435 Y110.264 E.00807
;WIDTH:0.395179
G1 X98.412 Y110 E.0073
;WIDTH:0.390411
G1 X98.435 Y109.743 E.00702
;WIDTH:0.422748
G1 X98.459 Y109.485 E.00767
;WIDTH:0.459999
G1 X98.622 Y109.105 E.01349
G1 X98.983 Y108.705 E.01756
G1 X99.372 Y108.481 E.01463
G1 X99.769 Y108.372 E.01344
G1 X100.161 Y108.365 E.01279
G1 X100.582 Y108.462 E.01407
G1 X100.946 Y108.655 E.01344
G1 X101.251 Y108.933 E.01344
G1 X101.477 Y109.278 E.01344
G1 X101.61 Y109.668 E.01344
G1 X101.641 Y110.089 E.01379
G1 X101.545 Y110.55 E.01535
G1 X101.41 Y110.842 E.01048
G1 X101.144 Y111.181 E.01407
G1 X100.946 Y111.345 E.00835
G1 X100.57 Y111.543 E.01387
G1 X100.034 Y111.645 E.01778
G1 X99.539 Y111.574 E.01632
G1 X99.23 Y111.453 E.01081
G1 X98.893 Y111.215 E.01343
G1 X98.71 Y111.001 E.00917
G1 X98.995 Y110.706 F9000
;TYPE:Outer wall
G1 F1800
G1 X98.991 Y110.701 E.00022
G1 X98.848 Y110.428 E.01004
G1 X98.778 Y110 E.01414
G1 X98.845 Y109.584 E.01373
G1 X99.021 Y109.257 E.01213
G1 X99.237 Y109.037 E.01005
G1 X99.501 Y108.877 E.01004
G1 X99.795 Y108.788 E.01004
G1 X100.088 Y108.776 E.00955
G1 X100.404 Y108.84 E.01052
G1 X100.68 Y108.977 E.01005
G1 X100.913 Y109.178 E.01004
G1 X101.089 Y109.431 E.01004
G1 X101.196 Y109.72 E.01004
G1 X101.227 Y110.037 E.01039
G1 X101.157 Y110.397 E.01194
G1 X101.07 Y110.601 E.00724
G1 X100.878 Y110.86 E.01052
G1 X100.68 Y111.023 E.00835
G1 X100.325 Y111.182 E.01268
G1 X100.051 Y111.228 E.00906
G1 X99.667 Y111.177 E.01262
G1 X99.453 Y111.1 E.00741
G1 X99.197 Y110.93 E.01004
G1 X99.022 Y110.736 E.00852
G1 E-1.05 F1500
;WIPE_START
G1 F1800
G1 X98.991 Y110.701 E-.02103
G1 X98.848 Y110.428 E-.13861
G1 X98.778 Y110 E-.19515
G1 X98.812 Y109.791 E-.09521
;WIPE_END
G1 Z.6 F9000
G1 X108.948 Y105.61 Z.6
G1 Z.2
G1 E1.5 F1500
;TYPE:Inner wall
G1 F1800
G1 X108.894 Y105.703 E.00352
G1 X108.564 Y105.999 E.01446
G1 X108.045 Y106.146 E.01758
G1 X107.577 Y106.056 E.01552
G1 X107.297 Y105.894 E.01056
G1 X107.001 Y105.563 E.01448
G1 X106.854 Y105.045 E.01756
G1 X106.946 Y104.569 E.01581
G1 X107.106 Y104.297 E.01027
G1 X107.464 Y103.986 E.01546
G1 X107.928 Y103.857 E.01568
G1 X108.201 Y103.885 E.00896
G1 X108.566 Y104.002 E.01249
G1 X108.703 Y104.106 E.00561
G1 X108.981 Y104.405 E.01332
G1 X109.126 Y104.838 E.01488
G1 X109.145 Y105.055 E.00708
G1 X109.056 Y105.423 E.01235
G1 X108.968 Y105.575 E.00574
G1 X108.599 Y105.408 F9000
;TYPE:Outer wall
G1 F1800
G1 X108.315 Y105.653 E.01224
G1 X107.946 Y105.723 E.01224
G1 X107.592 Y105.599 E.01224
G1 X107.347 Y105.315 E.01224
G1 X107.277 Y104.946 E.01224
G1 X107.401 Y104.592 E.01224
G1 X107.685 Y104.347 E.01224
G1 X108.054 Y104.277 E.01224
G1 X108.408 Y104.401 E.01224
G1 X108.653 Y104.685 E.01224
G1 X108.723 Y105.054 E.01224
G1 X108.612 Y105.371 E.01093
G1 E-1.05 F1500
;WIPE_START
G1 F1800
G1 X108.315 Y105.653 E-.1847
G1 X107.946 Y105.723 E-.1689
G1 X107.744 Y105.652 E-.0964
;WIPE_END
G1 Z.6 F9000
G1 X113.112 Y105.129 Z.6
G1 Z.2
G1 E1.5 F1500
;TYPE:Inner wall
G1 F1800
G1 X113.056 Y105.423 E.00976
G1 X112.894 Y105.703 E.01056
G1 X112.563 Y105.999 E.01448
G1 X112.045 Y106.146 E.01756
G1 X111.577 Y106.056 E.01552
G1 X111.376 Y105.961 E.00725
G1 X111.02 Y105.596 E.01664
G1 X110.874 Y105.162 E.01492
G1 X110.855 Y104.945 E.00708
G1 X110.944 Y104.577 E.01235
G1 X111.106 Y104.297 E.01056
G1 X111.46 Y103.988 E.01531
G1 X111.72 Y103.906 E.00891
G1 X112.031 Y103.854 E.01028
G1 X112.525 Y103.981 E.01664
G1 X112.786 Y104.189 E.01088
G1 X113.015 Y104.466 E.0117
G1 X113.146 Y104.955 E.01651
G1 X113.12 Y105.089 E.00445
G1 X112.723 Y105.054 F9000
;TYPE:Outer wall
G1 F1800
G1 X112.599 Y105.408 E.01224
G1 X112.315 Y105.653 E.01224
G1 X111.946 Y105.723 E.01224
G1 X111.592 Y105.599 E.01224
G1 X111.347 Y105.315 E.01224
G1 X111.277 Y104.946 E.01224
G1 X111.401 Y104.592 E.01224
G1 X111.685 Y104.347 E.01224
G1 X111.828 Y104.308 E.00483
G1 X112.054 Y104.277 E.00743
G1 X112.408 Y104.401 E.01224
G1 X112.653 Y104.685 E.01224
G1 X112.716 Y105.015 E.01093
G1 E-1.05 F1500
;WIPE_START
G1 F1800
G1 X112.599 Y105.408 E-.18471
G1 X112.315 Y105.653 E-.1689
G1 X112.104 Y105.693 E-.09639
;WIPE_END
G1 Z.6 F9000
G1 X114.404 Y108.956 Z.6
G1 Z.2
G1 E1.5 F1500
;TYPE:Inner wall
G1 F1800
