; HEADER_BLOCK_START
; generated by OrcaSlicer 1.9.0 on 2024-02-10 at 23:09:24
; total layer number: 200
; filament_density: 1.24
; filament_diameter: 1.75
; max_z_height: 40.00
; HEADER_BLOCK_END

; THUMBNAIL_BLOCK_START

;
; THUMBNAIL_BLOCK_END

; THUMBNAIL_BLOCK_START

;
; THUMBNAIL_BLOCK_END

; external perimeters extrusion width = 0.42mm
; perimeters extrusion width = 0.45mm
; infill extrusion width = 0.45mm
; solid infill extrusion width = 0.46mm
; top infill extrusion width = 0.42mm
; support material extrusion width = 0.38mm
; first layer extrusion width = 0.46mm

; EXECUTABLE_BLOCK_START
M73 P0 R31
;TYPE:Custom
START_PRINT EXTRUDER_TEMP=220 BED_TEMP=30
G90
G21
M83 ; use relative distances for extrusion
; filament start gcode
M106 S0
;LAYER_CHANGE
;Z:0.2
;HEIGHT:0.2
;BEFORE_LAYER_CHANGE
;0.2
G92 E0

G1 E-2.5 F1800
;_SET_FAN_SPEED_CHANGING_LAYER
SET_VELOCITY_LIMIT ACCEL=500 ACCEL_TO_DECEL=250
SET_VELOCITY_LIMIT SQUARE_CORNER_VELOCITY=8
; printing object Stick3.stl id:140713710965920 copy 0
G1 Z.4 F9000
G1 X174.192 Y65.992
G1 Z.4
G1 Z.2
G1 E2.5 F1800
;TYPE:Inner wall
;WIDTH:0.36667
G1 F1200
G1 X174.173 Y66.339 E.0103
;WIDTH:0.413335
G1 X174.14 Y66.595 E.00875
;WIDTH:0.459999
G1 X174.013 Y67.712 E.04288
G1 X173.855 Y68.563 E.03303
G1 X173.636 Y69.401 E.03303
G1 X173.357 Y70.22 E.03303
G1 X173.018 Y71.017 E.03303
G1 X172.622 Y71.787 E.03303
G1 X172.171 Y72.526 E.03303
G1 X171.668 Y73.23 E.03303
G1 X171.114 Y73.895 E.03303
G1 X170.513 Y74.519 E.03303
G1 X169.869 Y75.096 E.03299
G1 X169.146 Y75.65 E.03476
G1 X168.461 Y76.103 E.03133
G1 X167.706 Y76.527 E.03303
G1 X166.922 Y76.894 E.03303
G1 X166.113 Y77.204 E.03303
G1 X165.285 Y77.453 E.03298
G1 X164.536 Y77.617 E.02927
G1 X163.938 Y77.715 E.02312
G1 X163.064 Y77.826 E.03361
;WIDTH:0.419531
G1 X162.715 Y77.871 E.01213
;WIDTH:0.379063
G1 X162.049 Y77.881 E.02047
;WIDTH:0.393265
G1 X161.899 Y77.858 E.00487
;WIDTH:0.426632
G1 X161.748 Y77.835 E.00534
;WIDTH:0.459999
G1 X160.99 Y77.767 E.02904
G1 X160.134 Y77.641 E.03303
G1 X159.289 Y77.453 E.03303
G1 X158.459 Y77.204 E.03303
G1 X157.651 Y76.894 E.03303
G1 X156.867 Y76.527 E.03303
G1 X156.112 Y76.103 E.03303
G1 X155.391 Y75.626 E.03298
G1 X154.672 Y75.067 E.03476
G1 X154.06 Y74.519 E.03133
G1 X153.46 Y73.896 E.03298
G1 X152.879 Y73.194 E.03476
G1 X152.401 Y72.526 E.03133
G1 X151.95 Y71.787 E.03303
G1 X151.555 Y71.017 E.03303
G1 X151.216 Y70.22 E.03302
G1 X150.936 Y69.401 E.03303
G1 X150.718 Y68.564 E.03298
G1 X150.537 Y67.498 E.04127
G1 X150.43 Y66.559 E.03605
;WIDTH:0.410509
G1 X150.395 Y66.273 E.00967
;WIDTH:0.36397
G1 X150.397 Y65.669 E.01776
;WIDTH:0.411985
G1 X150.431 Y65.395 E.00932
;WIDTH:0.459999
G1 X150.56 Y64.26 E.04355
G1 X150.717 Y63.409 E.03303
G1 X150.936 Y62.571 E.03303
G1 X151.216 Y61.752 E.03303
G1 X151.555 Y60.955 E.03303
G1 X151.95 Y60.185 E.03303
G1 X152.401 Y59.446 E.03303
G1 X152.905 Y58.742 E.03303
G1 X153.459 Y58.077 E.03303
G1 X154.06 Y57.453 E.03303
G1 X154.704 Y56.876 E.03299
G1 X155.427 Y56.322 E.03476
G1 X156.112 Y55.869 E.03133
G1 X156.867 Y55.445 E.03303
G1 X157.651 Y55.078 E.03303
G1 X158.458 Y54.769 E.03298
G1 X159.332 Y54.509 E.03476
G1 X160.134 Y54.331 E.03133
G1 X161.494 Y54.151 E.05234
;WIDTH:0.425763
G1 X161.845 Y54.108 E.0124
;WIDTH:0.391526
G1 X162.341 Y54.089 E.01582
;WIDTH:0.381493
G1 X162.644 Y54.111 E.0094
;WIDTH:0.412343
G1 X162.946 Y54.134 E.01025
;WIDTH:0.459999
G1 X163.583 Y54.205 E.02443
G1 X164.439 Y54.331 E.03303
G1 X165.284 Y54.519 E.03303
G1 X166.113 Y54.768 E.03303
G1 X166.922 Y55.078 E.03303
G1 X167.706 Y55.445 E.03303
G1 X168.461 Y55.869 E.03303
G1 X169.183 Y56.347 E.03303
G1 X169.868 Y56.876 E.03303
G1 X170.513 Y57.453 E.03303
G1 X171.113 Y58.076 E.03298
G1 X171.694 Y58.778 E.03476
G1 X172.171 Y59.446 E.03133
G1 X172.622 Y60.185 E.03303
G1 X173.018 Y60.955 E.03303
G1 X173.357 Y61.752 E.03302
G1 X173.636 Y62.571 E.03303
G1 X173.855 Y63.408 E.03298
G1 X173.997 Y64.194 E.03047
G1 X174.144 Y65.446 E.04809
;WIDTH:0.410842
G1 X174.168 Y65.719 E.00922
;WIDTH:0.382443
G1 X174.188 Y65.952 E.00727
G1 X173.716 Y65.191 F9000
;WIDTH:0.459999
G1 F1200
G1 X173.763 Y65.264 E.00331
G1 X173.807 Y65.462 E.00773
;WIDTH:0.413335
G1 X173.85 Y65.659 E.00687
;WIDTH:0.36667
G1 X173.877 Y66.058 E.01183
;WIDTH:0.404668
G1 X173.821 Y66.377 E.01071
;WIDTH:0.454087
G1 X173.765 Y66.696 E.01217
;WIDTH:0.459999
G1 X173.542 Y67.047 E.01589
G1 X173.233 Y67.331 E.016
G1 X172.779 Y67.558 E.01935
G1 X172.311 Y67.63 E.01806
G1 X171.902 Y67.585 E.01572
G1 X171.535 Y67.447 E.01496
G1 X171.179 Y67.202 E.01646
G1 X170.881 Y66.832 E.01813
G1 X170.731 Y66.518 E.01328
G1 X170.647 Y66.114 E.01572
G1 X170.667 Y65.702 E.01572
G1 X170.782 Y65.327 E.01496
G1 X171.004 Y64.957 E.01646
G1 X171.3 Y64.671 E.01573
G1 X171.658 Y64.467 E.01572
G1 X172.056 Y64.358 E.01572
G1 X172.448 Y64.351 E.01496
G1 X172.868 Y64.448 E.01646
G1 X173.233 Y64.641 E.01573
G1 X173.537 Y64.919 E.01572
G1 X173.694 Y65.158 E.01089
G1 X173.374 Y65.415 F9000
;TYPE:Outer wall
G1 F1200
G1 X173.376 Y65.417 E.0001
G1 X173.483 Y65.706 E.01175
G1 X173.515 Y66.012 E.01175
G1 X173.47 Y66.317 E.01175
G1 X173.356 Y66.587 E.01118
G1 X173.164 Y66.846 E.01231
G1 X172.923 Y67.037 E.01176
G1 X172.641 Y67.163 E.01175
G1 X172.337 Y67.214 E.01175
G1 X172.031 Y67.188 E.01175
G1 X171.754 Y67.092 E.01118
G1 X171.483 Y66.916 E.01231
G1 X171.246 Y66.631 E.01414
G1 X171.135 Y66.414 E.00931
G1 X171.064 Y66.114 E.01175
G1 X171.071 Y65.806 E.01175
G1 X171.149 Y65.524 E.01118
G1 X171.308 Y65.243 E.01231
G1 X171.523 Y65.023 E.01176
G1 X171.787 Y64.863 E.01175
G1 X172.082 Y64.774 E.01175
G1 X172.375 Y64.762 E.01118
G1 X172.691 Y64.826 E.01231
G1 X173.042 Y65.025 E.01539
G1 X173.2 Y65.164 E.00804
G1 X173.351 Y65.382 E.01012
G1 E-1.75 F1800
;WIPE_START
G1 F1200
G1 X173.376 Y65.417 E-.03203
G1 X173.483 Y65.706 E-.23101
G1 X173.515 Y66.012 E-.23102
G1 X173.47 Y66.317 E-.23101
G1 X173.457 Y66.348 E-.02494
;WIPE_END
G1 Z.6 F9000
G1 X166.844 Y66.954 Z.6
G1 Z.2
G1 E2.5 F1800
;TYPE:Inner wall
G1 F1200
G1 X167.124 Y66.86 E.01127
G1 X167.341 Y66.841 E.00829
G1 X167.709 Y66.93 E.01445
G1 X167.99 Y67.092 E.01235
G1 X168.302 Y67.453 E.01822
G1 X168.431 Y67.924 E.01861
G1 X168.412 Y68.148 E.00857
G1 X168.274 Y68.569 E.01691
G1 X167.966 Y68.903 E.01734
G1 X167.709 Y69.042 E.01114
G1 X167.331 Y69.132 E.01482
G1 X166.864 Y69.042 E.01816
G1 X166.583 Y68.88 E.01235
G1 X166.287 Y68.549 E.01695
G1 X166.141 Y68.031 E.02055
G1 X166.23 Y67.563 E.01816
G1 X166.325 Y67.362 E.00848
G1 X166.691 Y67.006 E.01947
G1 X166.806 Y66.967 E.00466
G1 X166.972 Y67.333 F9000
;TYPE:Outer wall
G1 F1200
G1 X167.34 Y67.263 E.01432
G1 X167.695 Y67.387 E.01432
G1 X167.94 Y67.671 E.01432
G1 X168.009 Y68.04 E.01432
G1 X167.886 Y68.394 E.01432
G1 X167.601 Y68.639 E.01432
G1 X167.301 Y68.716 E.01181
G1 X166.925 Y68.62 E.01482
G1 X166.652 Y68.348 E.01471
G1 X166.56 Y67.949 E.01562
G1 X166.687 Y67.578 E.01497
G1 X166.941 Y67.359 E.01279
G1 E-1.75 F1800
;WIPE_START
G1 F1200
G1 X167.34 Y67.263 E-.30784
G1 X167.695 Y67.387 E-.2815
G1 X167.834 Y67.549 E-.16066
;WIPE_END
G1 Z.6 F9000
G1 X163.338 Y70.376 Z.6
G1 Z.2
G1 E2.5 F1800
;TYPE:Inner wall
G1 F1200
G1 X163.392 Y70.283 E.00412
G1 X163.583 Y70.092 E.0103
G1 X163.83 Y69.94 E.01104
G1 X164.242 Y69.84 E.01617
G1 X164.709 Y69.93 E.01816
G1 X164.99 Y70.092 E.01235
G1 X165.286 Y70.423 E.01695
G1 X165.432 Y70.941 E.02055
G1 X165.34 Y71.418 E.0185
G1 X165.181 Y71.689 E.01202
G1 X164.869 Y71.975 E.01613
G1 X164.387 Y72.125 E.01924
G1 X164.124 Y72.112 E.01003
G1 X163.682 Y71.961 E.01783
G1 X163.305 Y71.581 E.02042
G1 X163.16 Y71.148 E.01741
G1 X163.142 Y70.932 E.00829
G1 X163.23 Y70.563 E.01445
G1 X163.318 Y70.411 E.00671
G1 X163.687 Y70.578 F9000
;TYPE:Outer wall
G1 F1200
G1 X163.878 Y70.387 E.0103
G1 X164.249 Y70.259 E.01497
G1 X164.648 Y70.352 E.01562
G1 X164.921 Y70.624 E.01471
G1 X165.013 Y71.023 E.01562
G1 X164.886 Y71.394 E.01497
G1 X164.601 Y71.639 E.01432
G1 X164.232 Y71.709 E.01432
G1 X163.878 Y71.585 E.01432
G1 X163.633 Y71.301 E.01432
G1 X163.563 Y70.932 E.01432
G1 X163.674 Y70.616 E.01279
G1 E-1.75 F1800
;WIPE_START
G1 F1200
G1 X163.878 Y70.387 E-.2299
G1 X164.249 Y70.259 E-.29429
G1 X164.542 Y70.327 E-.22582
;WIPE_END
G1 Z.6 F9000
G1 X160.123 Y69.874 Z.6
G1 Z.2
G1 E2.5 F1800
;TYPE:Inner wall
G1 F1200
G1 X160.242 Y69.84 E.00471
G1 X160.709 Y69.93 E.01816
G1 X160.91 Y70.025 E.00848
G1 X161.267 Y70.39 E.01947
G1 X161.412 Y70.824 E.01746
G1 X161.431 Y71.041 E.00829
G1 X161.342 Y71.409 E.01445
G1 X161.181 Y71.689 E.01235
G1 X160.852 Y71.984 E.01683
G1 X160.371 Y72.128 E.01917
G1 X160.124 Y72.112 E.00941
G1 X159.704 Y71.974 E.01689
G1 X159.332 Y71.62 E.01958
G1 X159.203 Y71.307 E.01293
G1 X159.141 Y70.941 E.01414
G1 X159.23 Y70.563 E.01482
G1 X159.392 Y70.283 E.01235
G1 X159.723 Y69.987 E.01695
G1 X160.084 Y69.885 E.01431
G1 X160.232 Y70.263 F9000
;TYPE:Outer wall
G1 F1200
G1 X160.622 Y70.34 E.01513
G1 X160.914 Y70.614 E.01529
G1 X161.016 Y71.004 E.0154
G1 X160.915 Y71.358 E.01404
G1 X160.624 Y71.632 E.01523
G1 X160.232 Y71.709 E.01522
G1 X159.878 Y71.585 E.01432
G1 X159.633 Y71.301 E.01432
G1 X159.563 Y70.932 E.01432
G1 X159.633 Y70.671 E.0103
G1 X159.878 Y70.387 E.01432
G1 X160.195 Y70.276 E.01279
G1 E-1.75 F1800
;WIPE_START
G1 F1200
G1 X160.622 Y70.34 E-.32378
G1 X160.914 Y70.614 E-.30067
G1 X160.956 Y70.776 E-.12555
;WIPE_END
G1 Z.6 F9000
G1 X158.185 Y67.31 Z.6
G1 Z.2
G1 E2.5 F1800
;TYPE:Inner wall
G1 F1200
G1 X158.286 Y67.422 E.00576
G1 X158.432 Y67.941 E.02057
G1 X158.342 Y68.409 E.01816
G1 X158.181 Y68.689 E.01235
G1 X157.85 Y68.986 E.01695
G1 X157.331 Y69.132 E.02055
G1 X156.864 Y69.042 E.01816
G1 X156.607 Y68.903 E.01114
G1 X156.274 Y68.524 E.01926
G1 X156.141 Y68.039 E.01916
G1 X156.214 Y67.625 E.01606
G1 X156.342 Y67.339 E.01194
G1 X156.585 Y67.09 E.01326
G1 X156.864 Y66.93 E.01227
G1 X157.286 Y66.839 E.0165
G1 X157.709 Y66.93 E.0165
G1 X157.99 Y67.092 E.01236
G1 X158.158 Y67.28 E.00963
G1 X157.886 Y67.578 F9000
;TYPE:Outer wall
G1 F1200
G1 X158.013 Y67.949 E.01497
G1 X157.921 Y68.348 E.01562
G1 X157.648 Y68.62 E.01471
G1 X157.249 Y68.713 E.01562
G1 X156.878 Y68.585 E.01497
G1 X156.633 Y68.301 E.01432
G1 X156.563 Y67.932 E.01432
G1 X156.687 Y67.578 E.01432
G1 X156.879 Y67.386 E.01033
G1 X157.232 Y67.263 E.01429
G1 X157.601 Y67.333 E.01432
G1 X157.855 Y67.552 E.01279
G1 E-1.75 F1800
;WIPE_START
G1 F1200
G1 X158.013 Y67.949 E-.32055
G1 X157.921 Y68.348 E-.30706
G1 X157.805 Y68.463 E-.12239
;WIPE_END
G1 Z.6 F9000
G1 X158.185 Y64.662 Z.6
G1 Z.2
G1 E2.5 F1800
;TYPE:Inner wall
G1 F1200
G1 X157.99 Y64.88 E.01116
G1 X157.709 Y65.042 E.01235
G1 X157.286 Y65.133 E.0165
G1 X156.864 Y65.042 E.0165
G1 X156.583 Y64.88 E.01235
G1 X156.28 Y64.537 E.01745
G1 X156.14 Y64.012 E.02073
G1 X156.251 Y63.5 E.02
G1 X156.392 Y63.283 E.00988
G1 X156.702 Y62.999 E.01604
G1 X157.175 Y62.849 E.01891
G1 X157.448 Y62.86 E.01045
G1 X157.85 Y62.987 E.01605
G1 X158.217 Y63.323 E.01902
G1 X158.342 Y63.563 E.01033
G1 X158.432 Y64.031 E.01816
G1 X158.286 Y64.55 E.02057
G1 X158.211 Y64.633 E.00424
G1 X157.886 Y64.394 F9000
;TYPE:Outer wall
G1 F1200
G1 X157.601 Y64.639 E.01432
G1 X157.232 Y64.709 E.01432
G1 X156.878 Y64.585 E.01432
G1 X156.633 Y64.301 E.01432
G1 X156.556 Y63.995 E.01204
G1 X156.656 Y63.618 E.01486
G1 X156.952 Y63.339 E.01551
G1 X157.34 Y63.263 E.01511
G1 X157.695 Y63.387 E.01432
G1 X157.94 Y63.671 E.01432
G1 X158.009 Y64.04 E.01432
G1 X157.899 Y64.357 E.01279
G1 E-1.75 F1800
;WIPE_START
G1 F1200
G1 X157.601 Y64.639 E-.30784
G1 X157.232 Y64.709 E-.2815
G1 X157.03 Y64.638 E-.16067
;WIPE_END
G1 Z.6 F9000
G1 X150.971 Y66.957 Z.6
G1 Z.2
G1 E2.5 F1800
;TYPE:Inner wall
G1 F1200
G1 X150.912 Y66.888 E.00346
G1 X150.744 Y66.514 E.01563
;WIDTH:0.432283
G1 X150.721 Y66.25 E.00944
;WIDTH:0.395179
G1 X150.698 Y65.986 E.00854
;WIDTH:0.390411
G1 X150.722 Y65.729 E.00821
;WIDTH:0.422748
G1 X150.745 Y65.471 E.00898
;WIDTH:0.459999
G1 X150.908 Y65.091 E.01579
G1 X151.269 Y64.691 E.02055
G1 X151.658 Y64.467 E.01713
G1 X152.056 Y64.358 E.01572
G1 X152.448 Y64.351 E.01496
G1 X152.868 Y64.448 E.01646
G1 X153.233 Y64.641 E.01573
G1 X153.537 Y64.919 E.01572
G1 X153.763 Y65.264 E.01572
G1 X153.897 Y65.654 E.01572
G1 X153.927 Y66.075 E.01613
G1 X153.832 Y66.536 E.01796
G1 X153.697 Y66.828 E.01227
G1 X153.43 Y67.167 E.01646
G1 X153.233 Y67.331 E.00977
G1 X152.856 Y67.529 E.01623
G1 X152.32 Y67.631 E.02081
G1 X151.825 Y67.56 E.0191
G1 X151.516 Y67.439 E.01265
G1 X151.179 Y67.202 E.01572
G1 X150.997 Y66.988 E.01073
G1 X151.282 Y66.692 F9000
;TYPE:Outer wall
G1 F1200
G1 X151.277 Y66.687 E.00026
G1 X151.135 Y66.414 E.01175
G1 X151.064 Y65.986 E.01654
G1 X151.131 Y65.57 E.01606
G1 X151.308 Y65.243 E.01419
G1 X151.523 Y65.023 E.01176
G1 X151.787 Y64.863 E.01175
G1 X152.082 Y64.774 E.01175
G1 X152.375 Y64.762 E.01118
G1 X152.691 Y64.826 E.01231
G1 X152.967 Y64.963 E.01176
G1 X153.2 Y65.164 E.01175
G1 X153.376 Y65.417 E.01175
G1 X153.483 Y65.706 E.01175
G1 X153.514 Y66.023 E.01216
G1 X153.444 Y66.383 E.01397
G1 X153.356 Y66.587 E.00848
G1 X153.164 Y66.846 E.01231
G1 X152.967 Y67.009 E.00977
G1 X152.612 Y67.168 E.01484
G1 X152.337 Y67.214 E.0106
G1 X151.954 Y67.163 E.01476
G1 X151.74 Y67.087 E.00868
G1 X151.483 Y66.916 E.01175
G1 X151.308 Y66.722 E.00997
G1 E-1.75 F1800
;WIPE_START
G1 F1200
G1 X151.277 Y66.687 E-.03505
G1 X151.135 Y66.414 E-.23102
G1 X151.064 Y65.986 E-.32525
G1 X151.098 Y65.777 E-.15868
;WIPE_END
G1 Z.6 F9000
G1 X161.234 Y61.596 Z.6
G1 Z.2
G1 E2.5 F1800
;TYPE:Inner wall
G1 F1200
G1 X161.181 Y61.689 E.00412
G1 X160.85 Y61.985 E.01692
G1 X160.331 Y62.132 E.02057
G1 X159.864 Y62.042 E.01816
G1 X159.583 Y61.88 E.01235
G1 X159.287 Y61.549 E.01695
G1 X159.141 Y61.031 E.02055
G1 X159.233 Y60.555 E.0185
G1 X159.392 Y60.283 E.01202
G1 X159.751 Y59.972 E.01809
G1 X160.214 Y59.843 E.01835
G1 X160.488 Y59.871 E.01049
G1 X160.852 Y59.988 E.01462
G1 X160.99 Y60.092 E.00657
G1 X161.267 Y60.392 E.01558
G1 X161.412 Y60.824 E.01741
G1 X161.431 Y61.041 E.00829
G1 X161.342 Y61.409 E.01445
G1 X161.254 Y61.561 E.00671
G1 X160.886 Y61.394 F9000
;TYPE:Outer wall
G1 F1200
G1 X160.601 Y61.639 E.01432
G1 X160.232 Y61.709 E.01432
G1 X159.878 Y61.585 E.01432
G1 X159.633 Y61.301 E.01432
G1 X159.563 Y60.932 E.01432
G1 X159.687 Y60.578 E.01432
G1 X159.972 Y60.333 E.01432
G1 X160.34 Y60.263 E.01432
G1 X160.695 Y60.387 E.01432
G1 X160.94 Y60.671 E.01432
G1 X161.009 Y61.04 E.01432
G1 X160.899 Y61.357 E.01279
G1 E-1.75 F1800
;WIPE_START
G1 F1200
G1 X160.601 Y61.639 E-.30784
G1 X160.232 Y61.709 E-.2815
G1 X160.03 Y61.638 E-.16067
;WIPE_END
G1 Z.6 F9000
G1 X165.399 Y61.115 Z.6
G1 Z.2
G1 E2.5 F1800
;TYPE:Inner wall
G1 F1200
G1 X165.342 Y61.409 E.01143
G1 X165.181 Y61.689 E.01235
G1 X164.85 Y61.986 E.01695
G1 X164.331 Y62.132 E.02055
G1 X163.864 Y62.042 E.01816
G1 X163.663 Y61.947 E.00848
G1 X163.306 Y61.582 E.01947
G1 X163.16 Y61.148 E.01746
G1 X163.142 Y60.932 E.00829
G1 X163.23 Y60.563 E.01445
G1 X163.392 Y60.283 E.01235
G1 X163.746 Y59.975 E.01791
G1 X164.007 Y59.892 E.01042
G1 X164.318 Y59.84 E.01203
G1 X164.812 Y59.967 E.01947
G1 X165.073 Y60.175 E.01273
G1 X165.301 Y60.452 E.01369
G1 X165.432 Y60.941 E.01932
G1 X165.406 Y61.075 E.00521
G1 X165.009 Y61.04 F9000
;TYPE:Outer wall
G1 F1200
G1 X164.886 Y61.394 E.01432
G1 X164.601 Y61.639 E.01432
G1 X164.232 Y61.709 E.01432
G1 X163.878 Y61.585 E.01432
G1 X163.633 Y61.301 E.01432
G1 X163.563 Y60.932 E.01432
G1 X163.687 Y60.578 E.01432
G1 X163.972 Y60.333 E.01432
G1 X164.115 Y60.295 E.00565
G1 X164.34 Y60.263 E.0087
G1 X164.695 Y60.387 E.01432
G1 X164.94 Y60.671 E.01432
G1 X165.002 Y61.001 E.01279
G1 E-1.75 F1800
;WIPE_START
G1 F1200
G1 X164.886 Y61.394 E-.30786
G1 X164.601 Y61.639 E-.2815
G1 X164.391 Y61.679 E-.16065
;WIPE_END
G1 Z.6 F9000
G1 X166.69 Y64.942 Z.6
G1 Z.2
G1 E2.5 F1800
;TYPE:Inner wall
G1 F1200
G1 X166.583 Y64.88 E.00471
G1 X166.325 Y64.61 E.01426
G1 X166.23 Y64.409 E.00848
G1 X166.141 Y63.941 E.01816
G1 X166.287 Y63.423 E.02055
G1 X166.583 Y63.092 E.01695
G1 X166.864 Y62.93 E.01235
G1 X167.331 Y62.84 E.01816
G1 X167.768 Y62.949 E.01718
G1 X167.99 Y63.092 E.01005
G1 X168.297 Y63.444 E.01784
G1 X168.428 Y63.899 E.01804
G1 X168.412 Y64.148 E.00953
