; HEADER_BLOCK_START
; generated by OrcaSlicer 1.9.0 on 2024-01-27 at 08:55:37
; total layer number: 200
; filament_density: 1.27
; filament_diameter: 1.75
; max_z_height: 40.00
; HEADER_BLOCK_END

; THUMBNAIL_BLOCK_START

;
; THUMBNAIL_BLOCK_END

; THUMBNAIL_BLOCK_START

;
; THUMBNAIL_BLOCK_END

; external perimeters extrusion width = 0.42mm
; perimeters extrusion width = 0.45mm
; infill extrusion width = 0.45mm
; solid infill extrusion width = 0.46mm
; top infill extrusion width = 0.42mm
; first layer extrusion width = 0.46mm

; external perimeters extrusion width = 0.42mm
; perimeters extrusion width = 0.45mm
; infill extrusion width = 0.45mm
; solid infill extrusion width = 0.46mm
; top infill extrusion width = 0.42mm
; first layer extrusion width = 0.46mm

; EXECUTABLE_BLOCK_START
M73 P0 R36
;TYPE:Custom
START_PRINT EXTRUDER_TEMP=232 BED_TEMP=80
G90
G21
M83 ; use relative distances for extrusion
; filament start gcode
M106 S0
;LAYER_CHANGE
;Z:0.2
;HEIGHT:0.2
;BEFORE_LAYER_CHANGE
;0.2
G92 E0

G1 E-1.5 F1500
;_SET_FAN_SPEED_CHANGING_LAYER
SET_VELOCITY_LIMIT ACCEL=500 ACCEL_TO_DECEL=250
SET_VELOCITY_LIMIT SQUARE_CORNER_VELOCITY=8
; printing object Testplate.stl id:0 copy 0
G1 Z.4 F9000
G1 X100.207 Y118.123
G1 Z.4
G1 Z.2
G1 E1.5 F1500
;TYPE:Inner wall
;WIDTH:0.459999
G1 F1800
G1 X100.2 Y117.921 E.00658
G1 X100.041 Y117.653 E.01015
G1 X91.099 Y108.711 E.41227
G1 X90.907 Y108.491 E.00952
G1 X90.684 Y108.149 E.01331
G1 X90.508 Y107.675 E.01648
G1 X90.49 Y107.132 E.01769
G1 X90.613 Y106.606 E.01762
G1 X90.9 Y106.146 E.01768
G1 X91.295 Y105.776 E.01764
G1 X91.793 Y105.551 E.01784
G1 X92.319 Y105.464 E.01737
G1 X92.704 Y105.506 E.01261
G1 X93.192 Y105.691 E.01703
G1 X93.655 Y106.026 E.01863
G1 X102.662 Y115.033 E.41524
G1 X102.93 Y115.192 E.01015
G1 X103.131 Y115.216 E.0066
G1 X103.427 Y115.127 E.01008
G1 X104.311 Y114.594 E.03366
G1 X105.198 Y114.156 E.03223
G1 X106.117 Y113.793 E.03223
G1 X107.063 Y113.509 E.03219
G1 X108.082 Y113.298 E.03392
G1 X109.012 Y113.181 E.03057
G1 X110 Y113.139 E.03223
G1 X110.988 Y113.181 E.03223
G1 X111.967 Y113.304 E.03219
G1 X112.985 Y113.523 E.03392
G1 X113.883 Y113.793 E.03057
G1 X114.802 Y114.156 E.03223
G1 X115.689 Y114.594 E.03223
G1 X116.427 Y115.039 E.02811
G1 X116.767 Y115.203 E.01231
G1 X117.07 Y115.192 E.00988
G1 X117.338 Y115.033 E.01015
G1 X126.345 Y106.026 E.41524
G1 X126.815 Y105.688 E.01888
G1 X127.314 Y105.501 E.01737
G1 X127.865 Y105.483 E.01796
G1 X128.386 Y105.605 E.01744
G1 X128.846 Y105.891 E.01768
G1 X129.216 Y106.286 E.01764
G1 X129.441 Y106.785 E.01784
G1 X129.527 Y107.311 E.01737
G1 X129.486 Y107.695 E.01261
G1 X129.3 Y108.184 E.01703
G1 X128.965 Y108.647 E.01863
G1 X119.959 Y117.653 E.41524
G1 X119.8 Y117.921 E.01015
G1 X119.776 Y118.123 E.0066
G1 X119.865 Y118.419 E.01008
G1 X120.398 Y119.303 E.03366
G1 X120.836 Y120.189 E.03223
G1 X121.198 Y121.109 E.03223
G1 X121.483 Y122.055 E.03219
G1 X121.694 Y123.073 E.03392
G1 X121.811 Y124.004 E.03057
G1 X121.852 Y124.992 E.03223
G1 X121.811 Y125.979 E.03223
G1 X121.688 Y126.959 E.03219
G1 X121.468 Y127.976 E.03392
G1 X121.198 Y128.874 E.03057
G1 X120.836 Y129.794 E.03223
G1 X120.398 Y130.68 E.03223
G1 X119.953 Y131.419 E.02811
G1 X119.789 Y131.759 E.01231
G1 X119.8 Y132.062 E.00988
G1 X119.959 Y132.33 E.01015
G1 X128.901 Y141.272 E.41227
G1 X129.214 Y141.639 E.01572
G1 X129.393 Y141.982 E.01261
G1 X129.509 Y142.482 E.01675
G1 X129.51 Y142.851 E.01201
G1 X129.387 Y143.377 E.01762
G1 X129.1 Y143.838 E.01768
G1 X128.705 Y144.207 E.01764
G1 X128.207 Y144.433 E.01784
G1 X127.681 Y144.519 E.01737
G1 X127.296 Y144.477 E.01261
G1 X126.808 Y144.292 E.01703
G1 X126.345 Y143.957 E.01863
G1 X117.338 Y134.95 E.41524
G1 X117.07 Y134.792 E.01015
G1 X116.869 Y134.768 E.0066
G1 X116.573 Y134.857 E.01008
G1 X115.689 Y135.39 E.03366
G1 X114.802 Y135.828 E.03223
G1 X113.883 Y136.19 E.03223
G1 X112.937 Y136.474 E.03219
G1 X111.918 Y136.686 E.03392
G1 X110.988 Y136.803 E.03057
G1 X110 Y136.844 E.03223
G1 X109.012 Y136.803 E.03223
G1 X108.033 Y136.68 E.03219
G1 X107.015 Y136.46 E.03392
G1 X106.117 Y136.19 E.03057
G1 X105.198 Y135.828 E.03223
G1 X104.311 Y135.39 E.03223
G1 X103.573 Y134.945 E.02811
G1 X103.233 Y134.78 E.01231
G1 X102.93 Y134.792 E.00988
G1 X102.662 Y134.95 E.01015
G1 X93.719 Y143.893 E.41227
G1 X93.499 Y144.085 E.00952
G1 X93.157 Y144.307 E.01331
G1 X92.683 Y144.484 E.01648
G1 X92.141 Y144.501 E.01769
G1 X91.614 Y144.378 E.01762
G1 X91.154 Y144.092 E.01768
G1 X90.784 Y143.697 E.01764
G1 X90.559 Y143.198 E.01784
G1 X90.473 Y142.672 E.01737
G1 X90.514 Y142.288 E.01261
G1 X90.7 Y141.8 E.01703
G1 X91.035 Y141.337 E.01863
G1 X100.041 Y132.33 E.41524
G1 X100.2 Y132.062 E.01015
G1 X100.211 Y131.759 E.00988
G1 X100.135 Y131.565 E.00681
G1 X99.602 Y130.68 E.03366
G1 X99.164 Y129.794 E.03223
G1 X98.802 Y128.874 E.03223
G1 X98.517 Y127.929 E.03219
G1 X98.306 Y126.91 E.03392
G1 X98.189 Y125.979 E.03057
G1 X98.148 Y124.992 E.03223
G1 X98.189 Y124.004 E.03223
G1 X98.312 Y123.024 E.03219
G1 X98.532 Y122.007 E.03392
G1 X98.802 Y121.109 E.03057
G1 X99.164 Y120.189 E.03223
G1 X99.602 Y119.303 E.03223
G1 X100.047 Y118.564 E.02811
G1 X100.211 Y118.224 E.01231
G1 X100.209 Y118.163 E.002
G1 X99.807 Y118.105 F9000
;TYPE:Outer wall
G1 F1800
G1 X99.746 Y117.948 E.00547
G1 X90.804 Y109.006 E.41227
G1 X90.437 Y108.575 E.01846
G1 X90.219 Y108.16 E.01528
G1 X90.097 Y107.757 E.01374
G1 X90.053 Y107.314 E.0145
G1 X90.097 Y106.871 E.0145
G1 X90.226 Y106.446 E.0145
G1 X90.436 Y106.053 E.0145
G1 X90.718 Y105.71 E.0145
G1 X91.062 Y105.427 E.0145
G1 X91.454 Y105.218 E.0145
G1 X91.88 Y105.089 E.0145
G1 X92.321 Y105.045 E.01446
G1 X92.787 Y105.095 E.01528
G1 X93.191 Y105.218 E.01374
G1 X93.583 Y105.427 E.0145
G1 X93.935 Y105.717 E.01487
G1 X102.463 Y114.245 E.39315
G1 X103.046 Y114.791 E.02604
G1 X103.212 Y114.769 E.00545
G1 X104.111 Y114.227 E.03422
G1 X105.029 Y113.774 E.03336
G1 X105.981 Y113.399 E.03336
G1 X106.96 Y113.104 E.03335
G1 X108.013 Y112.886 E.03506
G1 X108.977 Y112.765 E.03168
G1 X110 Y112.722 E.03336
G1 X111.023 Y112.765 E.03336
G1 X112.037 Y112.892 E.03335
G1 X113.089 Y113.119 E.03506
G1 X114.019 Y113.399 E.03168
G1 X114.971 Y113.774 E.03336
G1 X115.889 Y114.227 E.03336
G1 X116.642 Y114.682 E.02868
G1 X116.9 Y114.799 E.00923
G1 X117.043 Y114.738 E.00507
G1 X125.986 Y105.796 E.41227
G1 X126.417 Y105.427 E.01849
G1 X126.809 Y105.218 E.0145
G1 X127.234 Y105.089 E.01446
G1 X127.701 Y105.047 E.01528
G1 X128.12 Y105.089 E.01374
G1 X128.546 Y105.218 E.0145
G1 X128.938 Y105.427 E.0145
G1 X129.282 Y105.71 E.0145
G1 X129.564 Y106.053 E.0145
G1 X129.774 Y106.446 E.0145
G1 X129.903 Y106.871 E.0145
G1 X129.946 Y107.313 E.01446
G1 X129.896 Y107.779 E.01528
G1 X129.774 Y108.182 E.01374
G1 X129.564 Y108.575 E.0145
G1 X129.275 Y108.927 E.01487
G1 X120.747 Y117.455 E.39315
G1 X120.201 Y118.038 E.02604
G1 X120.222 Y118.204 E.00545
G1 X120.764 Y119.103 E.03422
G1 X121.218 Y120.02 E.03336
G1 X121.593 Y120.972 E.03336
G1 X121.887 Y121.952 E.03335
G1 X122.106 Y123.005 E.03506
G1 X122.227 Y123.969 E.03168
G1 X122.27 Y124.992 E.03336
G1 X122.227 Y126.014 E.03336
G1 X122.099 Y127.029 E.03335
G1 X121.873 Y128.08 E.03506
G1 X121.593 Y129.011 E.03168
G1 X121.218 Y129.963 E.03336
G1 X120.764 Y130.881 E.03336
G1 X120.31 Y131.634 E.02868
G1 X120.192 Y131.892 E.00923
G1 X120.254 Y132.035 E.00507
G1 X129.196 Y140.977 E.41227
G1 X129.416 Y141.228 E.01086
G1 X129.671 Y141.615 E.01512
G1 X129.84 Y142.02 E.01432
G1 X129.924 Y142.441 E.014
G1 X129.947 Y142.669 E.00746
G1 X129.903 Y143.112 E.0145
G1 X129.774 Y143.538 E.0145
G1 X129.564 Y143.93 E.0145
G1 X129.282 Y144.274 E.0145
G1 X128.938 Y144.556 E.0145
G1 X128.546 Y144.766 E.0145
G1 X128.12 Y144.895 E.0145
G1 X127.679 Y144.938 E.01446
G1 X127.213 Y144.888 E.01528
G1 X126.809 Y144.766 E.01374
G1 X126.417 Y144.556 E.0145
G1 X126.065 Y144.266 E.01487
G1 X117.537 Y135.739 E.39315
G1 X116.954 Y135.192 E.02604
G1 X116.788 Y135.214 E.00545
G1 X115.889 Y135.756 E.03422
G1 X114.971 Y136.209 E.03336
G1 X114.019 Y136.584 E.03336
G1 X113.04 Y136.879 E.03335
G1 X111.987 Y137.097 E.03506
G1 X111.023 Y137.219 E.03168
G1 X110 Y137.261 E.03336
G1 X108.977 Y137.219 E.03336
G1 X107.963 Y137.091 E.03335
G1 X106.911 Y136.864 E.03506
G1 X105.981 Y136.584 E.03168
G1 X105.029 Y136.209 E.03336
G1 X104.111 Y135.756 E.03336
G1 X103.358 Y135.302 E.02868
G1 X103.1 Y135.184 E.00923
G1 X102.957 Y135.245 E.00507
G1 X94.014 Y144.188 E.41227
G1 X93.584 Y144.555 E.01846
G1 X93.168 Y144.772 E.01528
G1 X92.765 Y144.895 E.01374
G1 X92.322 Y144.938 E.0145
G1 X91.88 Y144.895 E.0145
G1 X91.454 Y144.766 E.0145
G1 X91.062 Y144.556 E.0145
G1 X90.718 Y144.274 E.0145
G1 X90.436 Y143.93 E.0145
G1 X90.226 Y143.538 E.0145
G1 X90.097 Y143.112 E.0145
G1 X90.054 Y142.67 E.01446
G1 X90.104 Y142.204 E.01528
G1 X90.226 Y141.801 E.01374
G1 X90.436 Y141.409 E.0145
G1 X90.725 Y141.056 E.01487
G1 X99.253 Y132.528 E.39315
G1 X99.799 Y131.946 E.02604
G1 X99.778 Y131.78 E.00545
G1 X99.236 Y130.881 E.03422
G1 X98.782 Y129.963 E.03336
G1 X98.407 Y129.011 E.03336
G1 X98.113 Y128.031 E.03335
G1 X97.894 Y126.978 E.03506
G1 X97.773 Y126.014 E.03168
G1 X97.73 Y124.992 E.03336
G1 X97.773 Y123.969 E.03336
G1 X97.901 Y122.954 E.03335
G1 X98.127 Y121.903 E.03506
G1 X98.407 Y120.972 E.03168
G1 X98.782 Y120.02 E.03336
G1 X99.204 Y119.168 E.031
G1 X99.788 Y118.14 E.03854
G1 E-1.05 F1500
;WIPE_START
G1 F1800
G1 X99.746 Y117.948 E-.08799
G1 X99.178 Y117.38 E-.36201
;WIPE_END
G1 Z.6 F9000
G1 X117.899 Y133.471 Z.6
G1 Z.2
G1 E1.5 F1500
;TYPE:Inner wall
G1 F1800
G1 X117.821 Y133.525 E.0031
G1 X117.417 Y133.67 E.01399
G1 X116.989 Y133.705 E.01399
G1 X116.567 Y133.628 E.01399
G1 X116.179 Y133.444 E.01399
G1 X115.852 Y133.166 E.01399
G1 X115.608 Y132.813 E.01399
G1 X115.464 Y132.409 E.01399
G1 X115.429 Y131.981 E.01399
G1 X115.506 Y131.559 E.01399
G1 X115.69 Y131.171 E.01399
G1 X115.968 Y130.844 E.01399
G1 X116.321 Y130.6 E.01399
G1 X116.725 Y130.456 E.01399
G1 X116.892 Y130.434 E.0055
G1 X117.153 Y130.421 E.0085
G1 X117.575 Y130.498 E.01399
G1 X117.963 Y130.682 E.01399
G1 X118.29 Y130.959 E.01399
G1 X118.534 Y131.312 E.01399
G1 X118.678 Y131.717 E.01399
G1 X118.713 Y132.144 E.01399
G1 X118.624 Y132.595 E.01498
G1 X118.452 Y132.954 E.01298
G1 X118.174 Y133.281 E.01399
G1 X117.932 Y133.449 E.00959
G1 X117.668 Y133.136 F9000
;TYPE:Outer wall
G1 F1800
G1 X117.662 Y133.14 E.00025
G1 X117.363 Y133.256 E.01046
G1 X116.971 Y133.282 E.0128
G1 X116.638 Y133.205 E.01114
G1 X116.433 Y133.113 E.00731
G1 X116.183 Y132.912 E.01046
G1 X115.994 Y132.653 E.01046
G1 X115.877 Y132.354 E.01046
G1 X115.855 Y131.938 E.01358
G1 X115.932 Y131.622 E.01061
G1 X116.021 Y131.425 E.00705
G1 X116.222 Y131.175 E.01046
G1 X116.48 Y130.985 E.01046
G1 X116.779 Y130.869 E.01046
G1 X116.947 Y130.847 E.0055
G1 X117.384 Y130.873 E.01427
G1 X117.709 Y131.013 E.01153
G1 X117.959 Y131.213 E.01046
G1 X118.149 Y131.472 E.01046
G1 X118.265 Y131.771 E.01046
G1 X118.299 Y132.09 E.01046
G1 X118.239 Y132.436 E.01144
G1 X118.121 Y132.701 E.00944
G1 X117.92 Y132.951 E.01046
G1 X117.7 Y133.112 E.00891
G1 E-1.05 F1500
;WIPE_START
G1 F1800
G1 X117.662 Y133.14 E-.0214
G1 X117.363 Y133.256 E-.14434
G1 X116.971 Y133.282 E-.17672
G1 X116.738 Y133.228 E-.10754
;WIPE_END
G1 Z.6 F9000
G1 X111.111 Y131.425 Z.6
G1 Z.2
G1 E1.5 F1500
;TYPE:Inner wall
G1 F1800
G1 X110.46 Y131.504 E.02136
G1 X109.66 Y131.514 E.02607
G1 X108.914 Y131.432 E.02448
G1 X108.287 Y131.289 E.02095
G1 X107.765 Y131.119 E.0179
G1 X107.078 Y130.82 E.02443
G1 X106.507 Y130.501 E.02134
G1 X106.03 Y130.178 E.01876
G1 X105.488 Y129.707 E.02341
G1 X105.109 Y129.303 E.01807
G1 X104.755 Y128.875 E.01811
G1 X104.396 Y128.345 E.02085
G1 X104.049 Y127.674 E.02464
G1 X103.849 Y127.159 E.01799
G1 X103.693 Y126.666 E.01685
G1 X103.572 Y126.148 E.01734
G1 X103.487 Y125.452 E.02287
G1 X103.478 Y124.652 E.02607
G1 X103.56 Y123.906 E.02448
G1 X103.702 Y123.279 E.02095
G1 X103.872 Y122.757 E.0179
G1 X104.172 Y122.07 E.02443
G1 X104.491 Y121.498 E.02134
G1 X104.814 Y121.022 E.01876
G1 X105.285 Y120.48 E.02341
G1 X105.688 Y120.1 E.01807
G1 X106.117 Y119.747 E.01811
G1 X106.646 Y119.388 E.02085
G1 X107.318 Y119.041 E.02464
G1 X107.832 Y118.84 E.01799
G1 X108.325 Y118.685 E.01685
G1 X108.843 Y118.564 E.01734
G1 X109.54 Y118.479 E.02287
G1 X110.34 Y118.469 E.02607
G1 X111.086 Y118.551 E.02448
G1 X111.713 Y118.694 E.02095
G1 X112.235 Y118.864 E.0179
G1 X112.922 Y119.163 E.02443
G1 X113.493 Y119.482 E.02134
G1 X113.97 Y119.805 E.01876
G1 X114.512 Y120.277 E.02341
G1 X114.891 Y120.68 E.01807
G1 X115.245 Y121.109 E.01811
G1 X115.604 Y121.638 E.02085
G1 X115.951 Y122.31 E.02464
G1 X116.151 Y122.824 E.01799
G1 X116.307 Y123.317 E.01685
G1 X116.428 Y123.835 E.01734
G1 X116.513 Y124.531 E.02287
G1 X116.522 Y125.331 E.02607
G1 X116.44 Y126.078 E.02448
G1 X116.298 Y126.704 E.02095
G1 X116.128 Y127.226 E.0179
G1 X115.828 Y127.913 E.02443
G1 X115.509 Y128.485 E.02134
G1 X115.186 Y128.961 E.01876
G1 X114.715 Y129.503 E.02341
G1 X114.312 Y129.883 E.01807
G1 X113.883 Y130.237 E.01811
G1 X113.354 Y130.596 E.02085
G1 X112.682 Y130.942 E.02464
G1 X112.168 Y131.143 E.01799
G1 X111.675 Y131.298 E.01685
G1 X111.157 Y131.42 E.01734
G1 X111.15 Y131.42 E.00021
G1 X111.061 Y131.014 F9000
;TYPE:Outer wall
G1 F1800
G1 X110.412 Y131.09 E.02128
G1 X109.66 Y131.097 E.02451
G1 X108.962 Y131.018 E.02292
G1 X108.382 Y130.883 E.01939
G1 X107.906 Y130.727 E.01634
G1 X107.266 Y130.448 E.02276
G1 X106.741 Y130.156 E.01959
G1 X106.265 Y129.833 E.01876
G1 X105.764 Y129.394 E.0217
G1 X105.421 Y129.027 E.01635
G1 X105.1 Y128.64 E.0164
G1 X104.741 Y128.111 E.02085
G1 X104.421 Y127.485 E.02292
G1 X104.241 Y127.018 E.01632
G1 X103.978 Y126.053 E.03259
G1 X103.902 Y125.404 E.02131
G1 X103.895 Y124.652 E.02451
G1 X103.974 Y123.954 E.02292
G1 X104.108 Y123.374 E.01939
G1 X104.265 Y122.898 E.01634
G1 X104.544 Y122.258 E.02276
G1 X104.836 Y121.733 E.01959
G1 X105.159 Y121.256 E.01876
G1 X105.598 Y120.756 E.0217
G1 X105.964 Y120.413 E.01635
G1 X106.351 Y120.092 E.0164
G1 X106.88 Y119.733 E.02085
G1 X107.507 Y119.413 E.02292
G1 X107.974 Y119.233 E.01632
G1 X108.938 Y118.97 E.03259
G1 X109.588 Y118.893 E.02131
G1 X110.34 Y118.886 E.02451
G1 X111.038 Y118.966 E.02292
G1 X111.618 Y119.1 E.01939
G1 X112.094 Y119.257 E.01634
G1 X112.734 Y119.536 E.02276
G1 X113.259 Y119.827 E.01959
G1 X113.735 Y120.151 E.01876
G1 X114.236 Y120.589 E.0217
G1 X114.579 Y120.956 E.01635
G1 X114.9 Y121.343 E.0164
G1 X115.259 Y121.872 E.02085
G1 X115.579 Y122.498 E.02292
G1 X115.759 Y122.965 E.01632
G1 X116.022 Y123.93 E.03259
G1 X116.098 Y124.579 E.02131
G1 X116.105 Y125.331 E.02451
G1 X116.026 Y126.03 E.02292
G1 X115.892 Y126.609 E.01939
G1 X115.735 Y127.085 E.01634
G1 X115.456 Y127.725 E.02276
G1 X115.164 Y128.251 E.01959
G1 X114.841 Y128.727 E.01876
G1 X114.402 Y129.228 E.0217
G1 X114.036 Y129.57 E.01635
G1 X113.649 Y129.891 E.0164
G1 X113.12 Y130.251 E.02085
G1 X112.493 Y130.57 E.02292
G1 X112.026 Y130.751 E.01632
G1 X111.099 Y131.003 E.03132
G1 E-1.05 F1500
;WIPE_START
G1 F1800
G1 X110.412 Y131.09 E-.31151
G1 X110.105 Y131.093 E-.13849
;WIPE_END
G1 Z.6 F9000
G1 X101.416 Y131.449 Z.6
G1 Z.2
G1 E1.5 F1500
;TYPE:Inner wall
G1 F1800
G1 X101.548 Y131.171 E.01003
G1 X101.826 Y130.844 E.01399
G1 X102.179 Y130.6 E.01399
G1 X102.583 Y130.456 E.01399
G1 X103.011 Y130.421 E.01399
G1 X103.433 Y130.498 E.01399
G1 X103.821 Y130.682 E.01399
G1 X104.148 Y130.959 E.01399
G1 X104.392 Y131.312 E.01399
G1 X104.536 Y131.717 E.01399
G1 X104.571 Y132.144 E.01399
G1 X104.494 Y132.567 E.01399
G1 X104.31 Y132.954 E.01399
G1 X104.032 Y133.281 E.01399
G1 X103.679 Y133.525 E.01399
G1 X103.275 Y133.67 E.01399
G1 X102.847 Y133.705 E.01399
G1 X102.396 Y133.616 E.01498
G1 X102.037 Y133.444 E.01298
G1 X101.71 Y133.166 E.01399
G1 X101.466 Y132.813 E.01399
G1 X101.322 Y132.409 E.01399
G1 X101.287 Y131.981 E.01399
G1 X101.364 Y131.559 E.01399
G1 X101.399 Y131.485 E.00266
G1 X101.788 Y131.625 F9000
;TYPE:Outer wall
G1 F1800
G1 X101.879 Y131.425 E.00717
G1 X102.08 Y131.175 E.01046
G1 X102.338 Y130.985 E.01046
G1 X102.637 Y130.869 E.01046
G1 X103.053 Y130.847 E.01358
G1 X103.37 Y130.923 E.01061
