; HEADER_BLOCK_START
; generated by OrcaSlicer 1.9.0 on 2024-01-12 at 15:18:26
; total layer number: 150
; filament_density: 1.27
; filament_diameter: 1.75
; max_z_height: 30.00
; HEADER_BLOCK_END

; THUMBNAIL_BLOCK_START

;
; THUMBNAIL_BLOCK_END

; THUMBNAIL_BLOCK_START

;
; THUMBNAIL_BLOCK_END

; external perimeters extrusion width = 0.42mm
; perimeters extrusion width = 0.45mm
; infill extrusion width = 0.45mm
; solid infill extrusion width = 0.46mm
; top infill extrusion width = 0.42mm
; first layer extrusion width = 0.46mm

; EXECUTABLE_BLOCK_START
M73 P0 R18
M201 X2000 Y2000 Z500 E2000
M203 X500 Y500 Z30 E100
M204 P2000 R2500 T5000 ; sets acceleration (P, T) and retract acceleration (R), mm/sec^2
M205 X10.00 Y10.00 Z0.40 E5.00 ; sets the jerk limits, mm/sec
;TYPE:Custom
M220 S100 ;Reset Feedrate 
M221 S100 ;Reset Flowrate 
 
M140 S80 ;Set final bed temp 
G28 ;Home 

M420 S1; Enable mesh leveling
M413 S0 ; disable power loss prot 

G92 E0 ;Reset Extruder 
G1 Z2.0 F3000 ;Move Z Axis up 
M104 S235 ;Set final nozzle temp 
G1 X-2.1 Y20 Z0.28 F5000.0 ;Move to start position 
M190 S80 ;Wait for bed temp to stabilize 
M109 S235 ;Wait for nozzle temp to stabilize 
G1 X-2.1 Y145.0 Z0.28 F1500.0 E15 ;Draw the first line 
G1 X-2.4 Y145.0 Z0.28 F5000.0 ;Move to side a little 
G1 X-2.4 Y20 Z0.28 F1500.0 E30 ;Draw the second line 
G92 E0  ;Reset Extruder 
G1 E-1.0000 F1800 ;Retract a bit 
G1 Z2.0 F3000 ;Move Z Axis up 
G1 E0.0000 F1800
G90
G21
M83 ; use relative distances for extrusion
; filament start gcode
M106 S0
;LAYER_CHANGE
;Z:0.2
;HEIGHT:0.2
;BEFORE_LAYER_CHANGE
;0.2
G92 E0

G1 E-.6 F1800
;_SET_FAN_SPEED_CHANGING_LAYER
M204 P500
M205 X8 Y8
; printing object TS1.stl id:0 copy 0
M204 T500
G1 Z.4 F9000
G1 X115.071 Y101.4
M73 P0 R17
G1 Z.4
M73 P1 R17
G1 Z.2
G1 E.6 F1800
;TYPE:Inner wall
;WIDTH:0.459999
G1 X115.515 Y101.702 E.01786
G1 X116.196 Y102.255 E.0292
G1 X116.638 Y102.673 E.02026
G1 X117.01 Y103.066 E.01804
G1 X117.471 Y103.633 E.02432
G1 X117.789 Y104.079 E.01825
G1 X118.201 Y104.767 E.02668
G1 X118.447 Y105.242 E.0178
;WIDTH:0.494445
G1 X118.67 Y105.793 E.02144
;WIDTH:0.540373
G1 X118.687 Y105.909 E.00466
;WIDTH:0.586301
G1 X118.705 Y106.025 E.00509
;WIDTH:0.632228
G1 X118.722 Y106.141 E.00552
G1 X118.868 Y106.518 E.019
;WIDTH:0.59916
G1 X118.964 Y106.8 E.01324
;WIDTH:0.565668
G1 X119.06 Y107.083 E.01244
;WIDTH:0.532175
G1 X119.143 Y107.405 E.01302
;WIDTH:0.496087
G1 X119.227 Y107.728 E.01206
;WIDTH:0.459999
G1 X119.312 Y108.392 E.02229
G1 X119.349 Y109.063 E.02237
G1 X119.34 Y109.722 E.02194
G1 X119.284 Y110.374 E.02179
G1 X119.183 Y111.023 E.02186
;WIDTH:0.507933
G1 X119.122 Y111.184 E.00642
;WIDTH:0.555866
G1 X119.06 Y111.346 E.00708
;WIDTH:0.603799
G1 X118.999 Y111.508 E.00774
G1 X118.927 Y111.804 E.01364
;WIDTH:0.636382
G1 X118.706 Y112.407 E.03042
G1 X118.682 Y112.532 E.00604
;WIDTH:0.592287
G1 X118.658 Y112.657 E.00559
;WIDTH:0.548191
G1 X118.633 Y112.782 E.00514
;WIDTH:0.504095
G1 X118.609 Y112.907 E.00469
;WIDTH:0.459999
G1 X118.329 Y113.508 E.02206
G1 X118.007 Y114.086 E.02204
G1 X117.63 Y114.66 E.02285
G1 X117.243 Y115.17 E.0213
G1 X116.897 Y115.564 E.01745
G1 X116.548 Y115.923 E.01669
G1 X116.159 Y116.283 E.01765
G1 X115.77 Y116.611 E.01692
G1 X115.165 Y117.045 E.02479
G1 X114.712 Y117.331 E.01783
G1 X113.777 Y117.803 E.03488
;WIDTH:0.465025
G1 X113.247 Y118.015 E.01923
;WIDTH:0.505462
G1 X113.026 Y118.067 E.00839
;WIDTH:0.545898
G1 X112.804 Y118.118 E.00913
;WIDTH:0.586334
G1 X112.583 Y118.17 E.00986
;WIDTH:0.630224
G1 X111.98 Y118.301 E.02891
G1 X111.864 Y118.35 E.00593
;WIDTH:0.581014
G1 X111.748 Y118.4 E.00543
;WIDTH:0.531803
G1 X111.632 Y118.45 E.00494
;WIDTH:0.482592
G1 X110.971 Y118.554 E.02348
;WIDTH:0.459999
G1 X110.296 Y118.6 E.0225
G1 X109.638 Y118.598 E.02191
G1 X108.789 Y118.521 E.0284
G1 X108.216 Y118.43 E.0193
;WIDTH:0.50263
G1 X107.981 Y118.352 E.0091
;WIDTH:0.545261
G1 X107.745 Y118.274 E.00994
;WIDTH:0.587891
G1 X107.51 Y118.196 E.01078
;WIDTH:0.620139
G1 X106.984 Y118.018 E.02557
G1 X106.846 Y117.988 E.00652
;WIDTH:0.580104
G1 X106.708 Y117.958 E.00607
;WIDTH:0.540069
G1 X106.57 Y117.928 E.00562
;WIDTH:0.500034
G1 X106.431 Y117.897 E.00517
;WIDTH:0.459999
G1 X105.822 Y117.62 E.02227
G1 X105.232 Y117.298 E.02239
G1 X104.666 Y116.934 E.02242
G1 X104.125 Y116.528 E.02251
G1 X103.615 Y116.084 E.02251
G1 X103.128 Y115.593 E.02302
G1 X102.709 Y115.107 E.02137
G1 X102.301 Y114.558 E.02274
G1 X101.977 Y114.057 E.01987
G1 X101.504 Y113.149 E.03409
G1 X101.277 Y112.609 E.01952
;WIDTH:0.502637
G1 X101.218 Y112.371 E.00898
;WIDTH:0.545274
G1 X101.16 Y112.134 E.00981
;WIDTH:0.587911
G1 X101.101 Y111.896 E.01064
;WIDTH:0.616857
G1 X100.971 Y111.344 E.02601
G1 X100.92 Y111.229 E.00576
;WIDTH:0.568007
G1 X100.869 Y111.114 E.00527
;WIDTH:0.519157
G1 X100.818 Y110.999 E.00478
;WIDTH:0.470306
G1 X100.786 Y110.829 E.00591
;WIDTH:0.459999
G1 X100.711 Y110.333 E.01668
G1 X100.658 Y109.664 E.02235
G1 X100.652 Y108.998 E.02216
G1 X100.715 Y108.175 E.0275
G1 X100.802 Y107.583 E.01991
;WIDTH:0.50343
G1 X100.882 Y107.33 E.00976
;WIDTH:0.546861
G1 X100.962 Y107.077 E.01068
;WIDTH:0.590292
G1 X101.042 Y106.824 E.0116
;WIDTH:0.609586
G1 X101.194 Y106.342 E.02286
G1 X101.232 Y106.161 E.00835
;WIDTH:0.559724
G1 X101.27 Y105.981 E.00761
;WIDTH:0.509862
G1 X101.308 Y105.8 E.00688
;WIDTH:0.459999
G1 X101.575 Y105.193 E.02206
G1 X101.883 Y104.607 E.02206
G1 X102.233 Y104.044 E.02206
G1 X102.621 Y103.507 E.02206
G1 X103.046 Y102.999 E.02206
G1 X103.507 Y102.522 E.02206
G1 X104 Y102.079 E.02206
G1 X104.485 Y101.702 E.02046
G1 X104.929 Y101.4 E.01787
G1 X106.917 Y101.4 E.06619
G1 X106.794 Y101.569 E.00695
G1 X106.653 Y101.926 E.01278
G1 X106.614 Y102.235 E.01036
G1 X106.701 Y102.767 E.01795
G1 X107.002 Y103.215 E.01799
G1 X107.242 Y103.414 E.01036
G1 X107.733 Y103.625 E.01779
G1 X107.955 Y103.632 E.0074
G1 X108.468 Y103.569 E.01722
G1 X108.898 Y103.31 E.0167
G1 X109.111 Y103.083 E.01036
G1 X109.361 Y102.568 E.01905
G1 X109.373 Y102.156 E.01372
G1 X109.296 Y101.76 E.01344
G1 X109.089 Y101.4 E.01381
G1 X110.917 Y101.4 E.06086
G1 X110.794 Y101.569 E.00695
G1 X110.653 Y101.926 E.01278
G1 X110.614 Y102.235 E.01036
G1 X110.714 Y102.798 E.01905
G1 X111.002 Y103.215 E.01688
G1 X111.242 Y103.414 E.01036
G1 X111.763 Y103.63 E.0188
G1 X112.278 Y103.611 E.01713
G1 X112.515 Y103.548 E.0082
G1 X112.952 Y103.271 E.01721
G1 X113.141 Y103.028 E.01024
G1 X113.365 Y102.546 E.01771
G1 X113.373 Y102.061 E.01613
G1 X113.296 Y101.76 E.01036
G1 X113.089 Y101.4 E.01381
G1 X115.031 Y101.4 E.06466
G1 X115.198 Y100.983 F9000
;TYPE:Outer wall
G1 F1800
G1 X115.771 Y101.372 E.02306
G1 X116.474 Y101.944 E.03019
G1 X116.939 Y102.384 E.02128
G1 X117.33 Y102.799 E.01899
G1 X117.809 Y103.389 E.0253
G1 X118.144 Y103.859 E.01923
G1 X118.57 Y104.574 E.02769
G1 X118.829 Y105.074 E.01876
G1 X119.09 Y105.674 E.02179
G1 X119.337 Y106.387 E.02511
G1 X119.504 Y106.992 E.02089
G1 X119.64 Y107.674 E.02315
G1 X119.728 Y108.367 E.02327
G1 X119.767 Y109.068 E.02336
G1 X119.759 Y109.713 E.02148
G1 X119.702 Y110.403 E.02305
G1 X119.596 Y111.087 E.02305
G1 X119.442 Y111.762 E.02305
G1 X119.241 Y112.424 E.02305
G1 X118.993 Y113.071 E.02305
G1 X118.7 Y113.698 E.02305
G1 X118.364 Y114.302 E.02304
G1 X117.971 Y114.901 E.02383
G1 X117.567 Y115.434 E.02227
G1 X117.11 Y115.954 E.02305
G1 X116.618 Y116.44 E.02304
G1 X116.073 Y116.905 E.02383
G1 X115.536 Y117.303 E.02227
G1 X114.952 Y117.675 E.02305
G1 X114.343 Y118.005 E.02305
G1 X113.712 Y118.29 E.02305
G1 X113.063 Y118.53 E.02305
G1 X112.399 Y118.724 E.02305
G1 X111.722 Y118.87 E.02305
G1 X111.037 Y118.968 E.02305
G1 X110.346 Y119.017 E.02305
G1 X109.654 Y119.017 E.02305
G1 X108.964 Y118.968 E.02304
G1 X108.255 Y118.865 E.02383
G1 X107.601 Y118.724 E.02227
G1 X106.937 Y118.53 E.02305
G1 X106.288 Y118.29 E.02305
G1 X105.657 Y118.005 E.02305
G1 X105.048 Y117.675 E.02305
G1 X104.464 Y117.303 E.02305
G1 X103.908 Y116.891 E.02305
G1 X103.382 Y116.441 E.02305
G1 X102.89 Y115.954 E.02304
G1 X102.419 Y115.415 E.02383
G1 X102.015 Y114.882 E.02227
G1 X101.636 Y114.303 E.02305
G1 X101.3 Y113.698 E.02305
G1 X101.007 Y113.071 E.02305
G1 X100.759 Y112.424 E.02305
G1 X100.558 Y111.762 E.02304
G1 X100.4 Y111.064 E.02383
G1 X100.298 Y110.403 E.02227
G1 X100.241 Y109.713 E.02305
G1 X100.233 Y109.021 E.02305
G1 X100.274 Y108.33 E.02305
G1 X100.364 Y107.643 E.02305
G1 X100.502 Y106.965 E.02305
G1 X100.688 Y106.298 E.02305
G1 X100.92 Y105.646 E.02305
G1 X101.199 Y105.012 E.02305
G1 X101.521 Y104.4 E.02305
G1 X101.886 Y103.811 E.02305
G1 X102.292 Y103.25 E.02305
G1 X102.736 Y102.72 E.02305
G1 X103.217 Y102.222 E.02305
G1 X103.732 Y101.759 E.02305
G1 X104.278 Y101.334 E.02305
G1 X104.802 Y100.983 E.02099
G1 X107.598 Y100.982 E.09308
;WIDTH:0.458604
G1 X108.309 Y100.968 E.0236
;WIDTH:0.459999
G1 X108.839 Y100.983 E.01764
G1 X111.598 Y100.982 E.09186
;WIDTH:0.458604
G1 X112.309 Y100.968 E.0236
;WIDTH:0.459999
G1 X112.839 Y100.983 E.01764
G1 X115.158 Y100.983 E.07721
G1 E-.42
;WIPE_START
G1 X115.771 Y101.372 E-.13071
G1 X115.983 Y101.545 E-.04929
;WIPE_END
G1 Z.6 F9000
G1 X117.718 Y108.421 Z.6
G1 Z.2
G1 E.6 F1800
;TYPE:Inner wall
G1 X117.477 Y108.565 E.00935
G1 X116.932 Y108.633 E.01828
G1 X116.651 Y108.602 E.00942
G1 X116.17 Y108.374 E.01772
G1 X116.002 Y108.215 E.00771
G1 X115.715 Y107.8 E.0168
G1 X115.614 Y107.235 E.01913
G1 X115.653 Y106.926 E.01036
G1 X115.866 Y106.437 E.01775
G1 X116.273 Y106.073 E.01819
G1 X116.554 Y105.94 E.01036
G1 X116.959 Y105.864 E.0137
G1 X117.356 Y105.905 E.01329
G1 X117.574 Y105.991 E.00781
;WIDTH:0.494445
G1 X118.006 Y106.259 E.01832
;WIDTH:0.540373
G1 X118.066 Y106.3 E.00289
;WIDTH:0.586301
G1 X118.126 Y106.341 E.00316
;WIDTH:0.632228
G1 X118.186 Y106.382 E.00343
G1 X118.411 Y106.876 E.02553
;WIDTH:0.586256
G1 X118.424 Y107.061 E.00804
;WIDTH:0.561424
G1 X118.396 Y107.255 E.00811
;WIDTH:0.527616
G1 X118.368 Y107.449 E.00758
;WIDTH:0.493808
G1 X118.341 Y107.643 E.00705
;WIDTH:0.459999
G1 X118.101 Y108.1 E.01717
G1 X117.898 Y108.31 E.00974
G1 X117.774 Y108.388 E.00488
G1 X117.752 Y108.401 E.00083
G1 X117.504 Y108.061 F9000
;TYPE:Outer wall
G1 F1800
G1 X117.251 Y108.195 E.00952
G1 X116.767 Y108.2 E.01615
G1 X116.339 Y107.97 E.01615
G1 X116.076 Y107.563 E.01614
G1 X116.041 Y107.08 E.01615
G1 X116.243 Y106.639 E.01615
G1 X116.632 Y106.35 E.01614
G1 X117.13 Y106.286 E.01671
G1 X117.35 Y106.343 E.00756
G1 X117.745 Y106.625 E.01614
G1 X117.956 Y107.061 E.01614
G1 X117.93 Y107.546 E.01615
G1 X117.674 Y107.957 E.01615
G1 X117.551 Y108.036 E.00488
G1 X117.539 Y108.042 E.00043
G1 E-.42
;WIPE_START
G1 X117.251 Y108.195 E-.05866
G1 X116.767 Y108.2 E-.08729
G1 X116.6 Y108.11 E-.03405
;WIPE_END
G1 Z.6 F9000
G1 X115.875 Y110.458 Z.6
G1 Z.2
G1 E.6 F1800
;TYPE:Inner wall
G1 X115.977 Y110.317 E.00579
G1 X116.339 Y110.025 E.01549
G1 X116.554 Y109.94 E.00771
G1 X117.009 Y109.859 E.01539
G1 X117.477 Y109.941 E.01582
G1 X117.981 Y110.26 E.01987
G1 X118.296 Y110.76 E.01965
;WIDTH:0.507933
G1 X118.345 Y110.988 E.00868
;WIDTH:0.555866
G1 X118.395 Y111.217 E.00957
;WIDTH:0.603799
G1 X118.445 Y111.445 E.01047
G1 X118.356 Y111.78 E.0155
;WIDTH:0.636382
G1 X118.175 Y112.148 E.01945
G1 X118.024 Y112.24 E.00834
;WIDTH:0.592287
G1 X117.874 Y112.332 E.00772
;WIDTH:0.548191
G1 X117.724 Y112.424 E.0071
;WIDTH:0.504095
G1 X117.574 Y112.515 E.00648
;WIDTH:0.459999
G1 X117.278 Y112.611 E.01036
G1 X116.763 Y112.63 E.01715
G1 X116.242 Y112.414 E.01878
G1 X116.002 Y112.215 E.01036
G1 X115.694 Y111.749 E.0186
G1 X115.614 Y111.235 E.01733
G1 X115.653 Y110.926 E.01036
G1 X115.794 Y110.569 E.01278
G1 X115.851 Y110.491 E.00323
G1 X116.207 Y110.7 F9000
;TYPE:Outer wall
G1 F1800
G1 X116.561 Y110.378 E.0159
G1 X117.035 Y110.275 E.01618
G1 X117.35 Y110.343 E.01073
G1 X117.745 Y110.625 E.01614
G1 X117.956 Y111.061 E.01614
G1 X117.93 Y111.546 E.01615
G1 X117.674 Y111.957 E.01615
G1 X117.251 Y112.195 E.01615
G1 X116.767 Y112.2 E.01615
G1 X116.339 Y111.97 E.01615
G1 X116.076 Y111.563 E.01614
G1 X116.041 Y111.08 E.01615
G1 X116.18 Y110.728 E.01259
G1 E-.42
;WIPE_START
G1 X116.561 Y110.378 E-.09306
G1 X117.033 Y110.276 E-.08694
;WIPE_END
G1 Z.6 F9000
G1 X112.185 Y114.877 Z.6
G1 Z.2
G1 E.6 F1800
;TYPE:Inner wall
G1 X112.46 Y114.934 E.00933
G1 X112.969 Y115.249 E.01994
G1 X113.111 Y115.424 E.00749
G1 X113.339 Y115.857 E.01631
G1 X113.373 Y116.445 E.0196
G1 X113.296 Y116.747 E.01036
G1 X113.037 Y117.189 E.01705
;WIDTH:0.50119
G1 X112.911 Y117.304 E.00627
;WIDTH:0.542381
G1 X112.784 Y117.42 E.00683
;WIDTH:0.583571
G1 X112.657 Y117.535 E.0074
;WIDTH:0.586334
G1 X112.431 Y117.648 E.01097
;WIDTH:0.630224
G1 X111.9 Y117.72 E.02513
G1 X111.735 Y117.644 E.00851
;WIDTH:0.587668
G1 X111.571 Y117.567 E.00789
;WIDTH:0.545112
G1 X111.406 Y117.49 E.00728
;WIDTH:0.502556
G1 X111.242 Y117.414 E.00666
;WIDTH:0.459999
G1 X111.002 Y117.215 E.01036
G1 X110.714 Y116.798 E.01688
G1 X110.614 Y116.235 E.01905
G1 X110.653 Y115.926 E.01036
G1 X110.844 Y115.47 E.01648
G1 X111.273 Y115.073 E.01944
G1 X111.532 Y114.945 E.00962
G1 X112.106 Y114.86 E.01932
G1 X112.146 Y114.868 E.00136
G1 X112.097 Y115.285 F9000
;TYPE:Outer wall
G1 F1800
G1 X112.113 Y115.283 E.00055
G1 X112.35 Y115.343 E.00813
G1 X112.698 Y115.566 E.01376
G1 X112.945 Y115.993 E.01641
G1 X112.956 Y116.457 E.01544
G1 X112.721 Y116.917 E.01721
G1 X112.297 Y117.187 E.01674
G1 X111.8 Y117.212 E.01657
G1 X111.34 Y116.971 E.01729
G1 X111.076 Y116.563 E.01616
G1 X111.041 Y116.08 E.01615
G1 X111.243 Y115.639 E.01615
G1 X111.632 Y115.35 E.01614
G1 X112.058 Y115.291 E.01429
G1 E-.42
;WIPE_START
G1 X112.113 Y115.283 E-.01017
G1 X112.35 Y115.343 E-.04398
G1 X112.698 Y115.566 E-.07437
G1 X112.841 Y115.814 E-.05149
;WIPE_END
G1 Z.6 F9000
G1 X108.175 Y114.882 Z.6
G1 Z.2
G1 E.6 F1800
;TYPE:Inner wall
G1 X108.511 Y114.956 E.01146
G1 X108.986 Y115.265 E.01886
G1 X109.296 Y115.76 E.01944
G1 X109.373 Y116.061 E.01036
G1 X109.361 Y116.568 E.01688
G1 X109.111 Y117.083 E.01905
G1 X108.898 Y117.31 E.01036
G1 X108.574 Y117.515 E.01278
G1 X108.278 Y117.611 E.01036
;WIDTH:0.50506
G1 X108.112 Y117.641 E.00622
;WIDTH:0.550121
G1 X107.945 Y117.671 E.00683
;WIDTH:0.595181
G1 X107.779 Y117.7 E.00744
G1 X107.56 Y117.638 E.01004
;WIDTH:0.620139
G1 X107.208 Y117.486 E.01769
G1 X107.1 Y117.341 E.00834
;WIDTH:0.580104
G1 X106.992 Y117.195 E.00776
;WIDTH:0.540069
G1 X106.884 Y117.05 E.00718
;WIDTH:0.500034
G1 X106.776 Y116.905 E.0066
;WIDTH:0.459999
G1 X106.662 Y116.615 E.01036
G1 X106.613 Y116.086 E.01769
G1 X106.794 Y115.569 E.01825
G1 X106.917 Y115.374 E.00767
G1 X107.325 Y115.034 E.01767
G1 X107.554 Y114.94 E.00826
G1 X108.066 Y114.858 E.01725
G1 X108.136 Y114.873 E.0024
G1 X108.083 Y115.279 F9000
;TYPE:Outer wall
G1 F1800
G1 X108.088 Y115.278 E.00014
G1 X108.35 Y115.343 E.00901
G1 X108.745 Y115.625 E.01614
G1 X108.956 Y116.061 E.01614
G1 X108.93 Y116.546 E.01615
G1 X108.674 Y116.957 E.01615
G1 X108.251 Y117.195 E.01614
G1 X107.767 Y117.2 E.01615
G1 X107.332 Y116.961 E.0165
G1 X107.076 Y116.563 E.01575
G1 X107.041 Y116.08 E.01615
G1 X107.243 Y115.639 E.01615
G1 X107.632 Y115.35 E.01614
G1 X108.044 Y115.285 E.01387
G1 E-.42
;WIPE_START
G1 X108.088 Y115.278 E-.00795
G1 X108.35 Y115.343 E-.04872
G1 X108.745 Y115.625 E-.08729
G1 X108.832 Y115.805 E-.03604
;WIPE_END
G1 Z.6 F9000
G1 X101.951 Y112.152 Z.6
G1 Z.2
M73 P2 R17
G1 E.6 F1800
;TYPE:Inner wall
;WIDTH:0.523501
G1 X101.782 Y111.967 E.00958
;WIDTH:0.559351
G1 X101.723 Y111.909 E.00343
;WIDTH:0.5952
G1 X101.664 Y111.85 E.00367
;WIDTH:0.616857
G1 X101.536 Y111.245 E.02837
G1 X101.601 Y111.076 E.00828
;WIDTH:0.577643
G1 X101.665 Y110.907 E.00772
;WIDTH:0.538428
G1 X101.73 Y110.738 E.00715
;WIDTH:0.499214
G1 X101.794 Y110.569 E.00658
;WIDTH:0.459999
G1 X102.009 Y110.291 E.01172
G1 X102.339 Y110.025 E.01409
G1 X102.554 Y109.94 E.00771
G1 X103.009 Y109.859 E.01539
G1 X103.477 Y109.941 E.01582
G1 X103.898 Y110.197 E.01639
G1 X104.111 Y110.424 E.01036
G1 X104.348 Y110.887 E.01735
G1 X104.373 Y111.445 E.01859
G1 X104.296 Y111.747 E.01036
G1 X104.023 Y112.205 E.01775
G1 X103.594 Y112.502 E.01737
G1 X103.278 Y112.611 E.01116
G1 X102.838 Y112.636 E.01464
G1 X102.578 Y112.572 E.00894
G1 X102.125 Y112.342 E.01691
